
; ### Ellis' Pressure Advance / Linear Advance Calibration Tool ###
;
; Original Marlin linear advance calibration tool by Sineos [https://github.com/Sineos]
; Heavily modified/rewritten by Andrew Ellis [https://github.com/AndrewEllis93]
;
; -------------------------------------------
; Generated: Thu Sep 05 2024 11:34:18 GMT-0400 (Eastern Daylight Time)
; -------------------------------------------
;
; Advanced Mode: false
;
; Printer:
;  - Firmware: klipper
;  - Bed Shape: Round
;  - Bed Diameter: 260 mm
;  - Origin Bed Center: true
;  - Travel Speed: 1000 mm/s
;  - Nozzle Diameter: 0.4 mm
;  - Filament Diameter: 1.75 mm
;  - Extrusion Multiplier: 0.98
;
; Retraction / Z Hop:
;  - Retraction Distance: 1 mm
;  - Retract Speed: 100 mm/s
;  - Unretract Speed: 100 mm/s
;  - Z Hop Enable: true
;  - Z Hop Height: 0.2mm
;
; First Layer Settings:
;  - First Layer Height: 0.2 mm
;  - First Layer Printing Speed: 80 mm/s
;  - First Layer Fan Speed: 0%
;  - Anchor Option: anchor_frame
;
; Print Settings:
;  - Layer Height: 0.2 mm
;  - Print Speed: 400 mm/s
;  - Acceleration: Disabled
;  - Fan Speed: 100%
;
; Pressure Advance Stepping:
;  - PA Start Value: 0.01
;  - PA End Value: 0.04
;  - PA Increment: 0.001
;
; Start / End G-code:
;  - Hotend Temp: 235C
;  - Bed Temp: 65C
;  - Don't Add G28: false
;  - Don't Add Heating G-Codes: false
;  - Entered Start G-code: 
;       G28 ; Home all axes
;       M190 S65 ; Set & wait for bed temp
;       M109 S235 ; Set & wait for hotend temp
;       PRINT_START ; Start macro
;       ; START_PRINT ; Start macro (alternate / official start macro name)
;  - Entered End G-code: 
;       PRINT_END ; End macro. Change name to match yours
;
; Calculated Values:
;  - Print Size X: 135.18 mm
;  - Print Size Y: 56.99 mm
;  - Number of Patterns to Print: 31
;  - PA Values: 0.01, 0.011, 0.012, 0.013, 0.014, 0.015, 0.016, 0.017, 0.018, 0.019, 0.02, 0.021, 0.022, 0.023, 0.024, 0.025, 0.026, 0.027, 0.028, 0.029, 0.03, 0.031, 0.032, 0.033, 0.034, 0.035, 0.036, 0.037, 0.038, 0.039, 0.04
;
; Prepare printing
;
G28 ; Home all axes
M190 S65 ; Set & wait for bed temp
M109 S235 ; Set & wait for hotend temp
PRINT_START ; Start macro
; START_PRINT ; Start macro (alternate / official start macro name)
G21 ; Millimeter units
G90 ; Absolute XYZ
M83 ; Relative E
G92 E0 ; Reset extruder distance
;
;  Begin printing
;
M106 S0 ; Set fan speed
G1 E-1 F6000 ; Retract
G0 Z5 F60000 ; Z raise
G0 X-67.5896 Y-28.4932 F60000 ; Move to start position
G0 Z0.2 F60000 ; Move to start layer height
G1 E1 F6000 ; Un-retract
SET_PRESSURE_ADVANCE ADVANCE=0.01 ; Set pressure advance to start value
M117 PA 0.01
G1 X-67.5896 Y13.9332 E1.78766 F4800 ; Draw perimeter (up)
G1 X67.5896 Y13.9332 E5.69583 F4800 ; Draw perimeter (right)
G1 X67.5896 Y-28.4932 E1.78766 F4800 ; Draw perimeter (down)
G1 X-67.5896 Y-28.4932 E5.69583 F4800 ; Draw perimeter (left)
G0 X-67.0725 Y-27.9761 F60000 ; Step inwards to print next perimeter
G1 X-67.0725 Y13.4161 E1.74408 F4800 ; Draw perimeter (up)
G1 X67.0725 Y13.4161 E5.65226 F4800 ; Draw perimeter (right)
G1 X67.0725 Y-27.9761 E1.74408 F4800 ; Draw perimeter (down)
G1 X-67.0725 Y-27.9761 E5.65226 F4800 ; Draw perimeter (left)
G0 X-66.5554 Y-27.459 F60000 ; Step inwards to print next perimeter
G1 X-66.5554 Y12.899 E1.70051 F4800 ; Draw perimeter (up)
G1 X66.5554 Y12.899 E5.60868 F4800 ; Draw perimeter (right)
G1 X66.5554 Y-27.459 E1.70051 F4800 ; Draw perimeter (down)
G1 X-66.5554 Y-27.459 E5.60868 F4800 ; Draw perimeter (left)
G0 X-66.0383 Y-26.942 F60000 ; Step inwards to print next perimeter
G1 X-66.0383 Y12.382 E1.65693 F4800 ; Draw perimeter (up)
G1 X66.0383 Y12.382 E5.56511 F4800 ; Draw perimeter (right)
G1 X66.0383 Y-26.942 E1.65693 F4800 ; Draw perimeter (down)
G1 X-66.0383 Y-26.942 E5.56511 F4800 ; Draw perimeter (left)
G1 E-1 F6000 ; Retract
G1 Z0.4 F60000 ; Z hop
G0 X-67.5896 Y14.4503 F60000 ; Move to box start
G1 Z0.2 F60000 ; Z hop return
G1 E1 F6000 ; Un-retract
G1 X-67.5896 Y28.9674 E0.61168 F4800 ; Draw perimeter (up)
G1 X47.0844 Y28.9674 E4.83184 F4800 ; Draw perimeter (right)
G1 X47.0844 Y14.4503 E0.61168 F4800 ; Draw perimeter (down)
G1 X-67.5896 Y14.4503 E4.83184 F4800 ; Draw perimeter (left)
G0 X-67.0725 Y14.9674 F60000 ; Step inwards to print next perimeter
G1 X-67.0725 Y28.4503 E0.56811 F4800 ; Draw perimeter (up)
G1 X46.5674 Y28.4503 E4.78826 F4800 ; Draw perimeter (right)
G1 X46.5674 Y14.9674 E0.56811 F4800 ; Draw perimeter (down)
G1 X-67.0725 Y14.9674 E4.78826 F4800 ; Draw perimeter (left)
G0 X-66.5554 Y15.4844 F60000 ; Step inwards to print next perimeter
G1 X-66.5554 Y27.9332 E0.52453 F4800 ; Draw perimeter (up)
G1 X46.0503 Y27.9332 E4.74469 F4800 ; Draw perimeter (right)
G1 X46.0503 Y15.4844 E0.52453 F4800 ; Draw perimeter (down)
G1 X-66.5554 Y15.4844 E4.74469 F4800 ; Draw perimeter (left)
G0 X-66.0383 Y16.0015 F60000 ; Step inwards to print next perimeter
G1 X-66.0383 Y27.4161 E0.48096 F4800 ; Draw perimeter (up)
G1 X45.5332 Y27.4161 E4.70112 F4800 ; Draw perimeter (right)
G1 X45.5332 Y16.0015 E0.48096 F4800 ; Draw perimeter (down)
G1 X-66.0383 Y16.0015 E4.70112 F4800 ; Draw perimeter (left)
G0 X-65.665 Y16.3749 F60000 ; Move to fill start
G0 X-64.9337 Y16.3749 F60000 ; Move
G1 X-65.665 Y17.1061 E0.04357 F4800 ; Fill
G0 X-65.665 Y17.8374 F60000 ; Move
G1 X-64.2025 Y16.3749 E0.08715 F4800 ; Fill
G0 X-63.4712 Y16.3749 F60000 ; Move
G1 X-65.665 Y18.5686 E0.13072 F4800 ; Fill
G0 X-65.665 Y19.2999 F60000 ; Move
G1 X-62.7399 Y16.3749 E0.1743 F4800 ; Fill
G0 X-62.0087 Y16.3749 F60000 ; Move
G1 X-65.665 Y20.0312 E0.21787 F4800 ; Fill
G0 X-65.665 Y20.7624 F60000 ; Move
G1 X-61.2774 Y16.3749 E0.26145 F4800 ; Fill
G0 X-60.5462 Y16.3749 F60000 ; Move
G1 X-65.665 Y21.4937 E0.30502 F4800 ; Fill
G0 X-65.665 Y22.2249 F60000 ; Move
G1 X-59.8149 Y16.3749 E0.3486 F4800 ; Fill
G0 X-59.0836 Y16.3749 F60000 ; Move
G1 X-65.665 Y22.9562 E0.39217 F4800 ; Fill
G0 X-65.665 Y23.6875 F60000 ; Move
G1 X-58.3524 Y16.3749 E0.43575 F4800 ; Fill
G0 X-57.6211 Y16.3749 F60000 ; Move
G1 X-65.665 Y24.4187 E0.47932 F4800 ; Fill
G0 X-65.665 Y25.15 F60000 ; Move
G1 X-56.8899 Y16.3749 E0.5229 F4800 ; Fill
G0 X-56.1586 Y16.3749 F60000 ; Move
G1 X-65.665 Y25.8813 E0.56647 F4800 ; Fill
G0 X-65.665 Y26.6125 F60000 ; Move
G1 X-55.4273 Y16.3749 E0.61005 F4800 ; Fill
G0 X-54.6961 Y16.3749 F60000 ; Move
G1 X-65.364 Y27.0428 E0.63569 F4800 ; Fill
G0 X-64.6327 Y27.0428 F60000 ; Move
G1 X-53.9648 Y16.3749 E0.63569 F4800 ; Fill
G0 X-53.2336 Y16.3749 F60000 ; Move
G1 X-63.9015 Y27.0428 E0.63569 F4800 ; Fill
G0 X-63.1702 Y27.0428 F60000 ; Move
G1 X-52.5023 Y16.3749 E0.63569 F4800 ; Fill
G0 X-51.771 Y16.3749 F60000 ; Move
G1 X-62.439 Y27.0428 E0.63569 F4800 ; Fill
G0 X-61.7077 Y27.0428 F60000 ; Move
G1 X-51.0398 Y16.3749 E0.63569 F4800 ; Fill
G0 X-50.3085 Y16.3749 F60000 ; Move
G1 X-60.9764 Y27.0428 E0.63569 F4800 ; Fill
G0 X-60.2452 Y27.0428 F60000 ; Move
G1 X-49.5772 Y16.3749 E0.63569 F4800 ; Fill
G0 X-48.846 Y16.3749 F60000 ; Move
G1 X-59.5139 Y27.0428 E0.63569 F4800 ; Fill
G0 X-58.7827 Y27.0428 F60000 ; Move
G1 X-48.1147 Y16.3749 E0.63569 F4800 ; Fill
G0 X-47.3835 Y16.3749 F60000 ; Move
G1 X-58.0514 Y27.0428 E0.63569 F4800 ; Fill
G0 X-57.3201 Y27.0428 F60000 ; Move
G1 X-46.6522 Y16.3749 E0.63569 F4800 ; Fill
G0 X-45.9209 Y16.3749 F60000 ; Move
G1 X-56.5889 Y27.0428 E0.63569 F4800 ; Fill
G0 X-55.8576 Y27.0428 F60000 ; Move
G1 X-45.1897 Y16.3749 E0.63569 F4800 ; Fill
G0 X-44.4584 Y16.3749 F60000 ; Move
G1 X-55.1264 Y27.0428 E0.63569 F4800 ; Fill
G0 X-54.3951 Y27.0428 F60000 ; Move
G1 X-43.7272 Y16.3749 E0.63569 F4800 ; Fill
G0 X-42.9959 Y16.3749 F60000 ; Move
G1 X-53.6638 Y27.0428 E0.63569 F4800 ; Fill
G0 X-52.9326 Y27.0428 F60000 ; Move
G1 X-42.2646 Y16.3749 E0.63569 F4800 ; Fill
G0 X-41.5334 Y16.3749 F60000 ; Move
G1 X-52.2013 Y27.0428 E0.63569 F4800 ; Fill
G0 X-51.47 Y27.0428 F60000 ; Move
G1 X-40.8021 Y16.3749 E0.63569 F4800 ; Fill
G0 X-40.0709 Y16.3749 F60000 ; Move
G1 X-50.7388 Y27.0428 E0.63569 F4800 ; Fill
G0 X-50.0075 Y27.0428 F60000 ; Move
G1 X-39.3396 Y16.3749 E0.63569 F4800 ; Fill
G0 X-38.6083 Y16.3749 F60000 ; Move
G1 X-49.2763 Y27.0428 E0.63569 F4800 ; Fill
G0 X-48.545 Y27.0428 F60000 ; Move
G1 X-37.8771 Y16.3749 E0.63569 F4800 ; Fill
G0 X-37.1458 Y16.3749 F60000 ; Move
G1 X-47.8137 Y27.0428 E0.63569 F4800 ; Fill
G0 X-47.0825 Y27.0428 F60000 ; Move
G1 X-36.4145 Y16.3749 E0.63569 F4800 ; Fill
G0 X-35.6833 Y16.3749 F60000 ; Move
G1 X-46.3512 Y27.0428 E0.63569 F4800 ; Fill
G0 X-45.62 Y27.0428 F60000 ; Move
G1 X-34.952 Y16.3749 E0.63569 F4800 ; Fill
G0 X-34.2208 Y16.3749 F60000 ; Move
G1 X-44.8887 Y27.0428 E0.63569 F4800 ; Fill
G0 X-44.1574 Y27.0428 F60000 ; Move
G1 X-33.4895 Y16.3749 E0.63569 F4800 ; Fill
G0 X-32.7582 Y16.3749 F60000 ; Move
G1 X-43.4262 Y27.0428 E0.63569 F4800 ; Fill
G0 X-42.6949 Y27.0428 F60000 ; Move
G1 X-32.027 Y16.3749 E0.63569 F4800 ; Fill
G0 X-31.2957 Y16.3749 F60000 ; Move
G1 X-41.9637 Y27.0428 E0.63569 F4800 ; Fill
G0 X-41.2324 Y27.0428 F60000 ; Move
G1 X-30.5645 Y16.3749 E0.63569 F4800 ; Fill
G0 X-29.8332 Y16.3749 F60000 ; Move
G1 X-40.5011 Y27.0428 E0.63569 F4800 ; Fill
G0 X-39.7699 Y27.0428 F60000 ; Move
G1 X-29.1019 Y16.3749 E0.63569 F4800 ; Fill
G0 X-28.3707 Y16.3749 F60000 ; Move
G1 X-39.0386 Y27.0428 E0.63569 F4800 ; Fill
G0 X-38.3073 Y27.0428 F60000 ; Move
G1 X-27.6394 Y16.3749 E0.63569 F4800 ; Fill
G0 X-26.9082 Y16.3749 F60000 ; Move
G1 X-37.5761 Y27.0428 E0.63569 F4800 ; Fill
G0 X-36.8448 Y27.0428 F60000 ; Move
G1 X-26.1769 Y16.3749 E0.63569 F4800 ; Fill
G0 X-25.4456 Y16.3749 F60000 ; Move
G1 X-36.1136 Y27.0428 E0.63569 F4800 ; Fill
G0 X-35.3823 Y27.0428 F60000 ; Move
G1 X-24.7144 Y16.3749 E0.63569 F4800 ; Fill
G0 X-23.9831 Y16.3749 F60000 ; Move
G1 X-34.651 Y27.0428 E0.63569 F4800 ; Fill
G0 X-33.9198 Y27.0428 F60000 ; Move
G1 X-23.2518 Y16.3749 E0.63569 F4800 ; Fill
G0 X-22.5206 Y16.3749 F60000 ; Move
G1 X-33.1885 Y27.0428 E0.63569 F4800 ; Fill
G0 X-32.4573 Y27.0428 F60000 ; Move
G1 X-21.7893 Y16.3749 E0.63569 F4800 ; Fill
G0 X-21.0581 Y16.3749 F60000 ; Move
G1 X-31.726 Y27.0428 E0.63569 F4800 ; Fill
G0 X-30.9947 Y27.0428 F60000 ; Move
G1 X-20.3268 Y16.3749 E0.63569 F4800 ; Fill
G0 X-19.5955 Y16.3749 F60000 ; Move
G1 X-30.2635 Y27.0428 E0.63569 F4800 ; Fill
G0 X-29.5322 Y27.0428 F60000 ; Move
G1 X-18.8643 Y16.3749 E0.63569 F4800 ; Fill
G0 X-18.133 Y16.3749 F60000 ; Move
G1 X-28.801 Y27.0428 E0.63569 F4800 ; Fill
G0 X-28.0697 Y27.0428 F60000 ; Move
G1 X-17.4018 Y16.3749 E0.63569 F4800 ; Fill
G0 X-16.6705 Y16.3749 F60000 ; Move
G1 X-27.3384 Y27.0428 E0.63569 F4800 ; Fill
G0 X-26.6072 Y27.0428 F60000 ; Move
G1 X-15.9392 Y16.3749 E0.63569 F4800 ; Fill
G0 X-15.208 Y16.3749 F60000 ; Move
G1 X-25.8759 Y27.0428 E0.63569 F4800 ; Fill
G0 X-25.1447 Y27.0428 F60000 ; Move
G1 X-14.4767 Y16.3749 E0.63569 F4800 ; Fill
G0 X-13.7455 Y16.3749 F60000 ; Move
G1 X-24.4134 Y27.0428 E0.63569 F4800 ; Fill
G0 X-23.6821 Y27.0428 F60000 ; Move
G1 X-13.0142 Y16.3749 E0.63569 F4800 ; Fill
G0 X-12.2829 Y16.3749 F60000 ; Move
G1 X-22.9509 Y27.0428 E0.63569 F4800 ; Fill
G0 X-22.2196 Y27.0428 F60000 ; Move
G1 X-11.5517 Y16.3749 E0.63569 F4800 ; Fill
G0 X-10.8204 Y16.3749 F60000 ; Move
G1 X-21.4883 Y27.0428 E0.63569 F4800 ; Fill
G0 X-20.7571 Y27.0428 F60000 ; Move
G1 X-10.0892 Y16.3749 E0.63569 F4800 ; Fill
G0 X-9.3579 Y16.3749 F60000 ; Move
G1 X-20.0258 Y27.0428 E0.63569 F4800 ; Fill
G0 X-19.2946 Y27.0428 F60000 ; Move
G1 X-8.6266 Y16.3749 E0.63569 F4800 ; Fill
G0 X-7.8954 Y16.3749 F60000 ; Move
G1 X-18.5633 Y27.0428 E0.63569 F4800 ; Fill
G0 X-17.832 Y27.0428 F60000 ; Move
G1 X-7.1641 Y16.3749 E0.63569 F4800 ; Fill
G0 X-6.4328 Y16.3749 F60000 ; Move
G1 X-17.1008 Y27.0428 E0.63569 F4800 ; Fill
G0 X-16.3695 Y27.0428 F60000 ; Move
G1 X-5.7016 Y16.3749 E0.63569 F4800 ; Fill
G0 X-4.9703 Y16.3749 F60000 ; Move
G1 X-15.6383 Y27.0428 E0.63569 F4800 ; Fill
G0 X-14.907 Y27.0428 F60000 ; Move
G1 X-4.2391 Y16.3749 E0.63569 F4800 ; Fill
G0 X-3.5078 Y16.3749 F60000 ; Move
G1 X-14.1757 Y27.0428 E0.63569 F4800 ; Fill
G0 X-13.4445 Y27.0428 F60000 ; Move
G1 X-2.7765 Y16.3749 E0.63569 F4800 ; Fill
G0 X-2.0453 Y16.3749 F60000 ; Move
G1 X-12.7132 Y27.0428 E0.63569 F4800 ; Fill
G0 X-11.982 Y27.0428 F60000 ; Move
G1 X-1.314 Y16.3749 E0.63569 F4800 ; Fill
G0 X-0.5828 Y16.3749 F60000 ; Move
G1 X-11.2507 Y27.0428 E0.63569 F4800 ; Fill
G0 X-10.5194 Y27.0428 F60000 ; Move
G1 X0.1485 Y16.3749 E0.63569 F4800 ; Fill
G0 X0.8798 Y16.3749 F60000 ; Move
G1 X-9.7882 Y27.0428 E0.63569 F4800 ; Fill
G0 X-9.0569 Y27.0428 F60000 ; Move
G1 X1.611 Y16.3749 E0.63569 F4800 ; Fill
G0 X2.3423 Y16.3749 F60000 ; Move
G1 X-8.3256 Y27.0428 E0.63569 F4800 ; Fill
G0 X-7.5944 Y27.0428 F60000 ; Move
G1 X3.0735 Y16.3749 E0.63569 F4800 ; Fill
G0 X3.8048 Y16.3749 F60000 ; Move
G1 X-6.8631 Y27.0428 E0.63569 F4800 ; Fill
G0 X-6.1319 Y27.0428 F60000 ; Move
G1 X4.5361 Y16.3749 E0.63569 F4800 ; Fill
G0 X5.2673 Y16.3749 F60000 ; Move
G1 X-5.4006 Y27.0428 E0.63569 F4800 ; Fill
G0 X-4.6693 Y27.0428 F60000 ; Move
G1 X5.9986 Y16.3749 E0.63569 F4800 ; Fill
G0 X6.7299 Y16.3749 F60000 ; Move
G1 X-3.9381 Y27.0428 E0.63569 F4800 ; Fill
G0 X-3.2068 Y27.0428 F60000 ; Move
G1 X7.4611 Y16.3749 E0.63569 F4800 ; Fill
G0 X8.1924 Y16.3749 F60000 ; Move
G1 X-2.4756 Y27.0428 E0.63569 F4800 ; Fill
G0 X-1.7443 Y27.0428 F60000 ; Move
G1 X8.9236 Y16.3749 E0.63569 F4800 ; Fill
G0 X9.6549 Y16.3749 F60000 ; Move
G1 X-1.013 Y27.0428 E0.63569 F4800 ; Fill
G0 X-0.2818 Y27.0428 F60000 ; Move
G1 X10.3862 Y16.3749 E0.63569 F4800 ; Fill
G0 X11.1174 Y16.3749 F60000 ; Move
G1 X0.4495 Y27.0428 E0.63569 F4800 ; Fill
G0 X1.1807 Y27.0428 F60000 ; Move
G1 X11.8487 Y16.3749 E0.63569 F4800 ; Fill
G0 X12.5799 Y16.3749 F60000 ; Move
G1 X1.912 Y27.0428 E0.63569 F4800 ; Fill
G0 X2.6433 Y27.0428 F60000 ; Move
G1 X13.3112 Y16.3749 E0.63569 F4800 ; Fill
G0 X14.0425 Y16.3749 F60000 ; Move
G1 X3.3745 Y27.0428 E0.63569 F4800 ; Fill
G0 X4.1058 Y27.0428 F60000 ; Move
G1 X14.7737 Y16.3749 E0.63569 F4800 ; Fill
G0 X15.505 Y16.3749 F60000 ; Move
G1 X4.8371 Y27.0428 E0.63569 F4800 ; Fill
G0 X5.5683 Y27.0428 F60000 ; Move
G1 X16.2362 Y16.3749 E0.63569 F4800 ; Fill
G0 X16.9675 Y16.3749 F60000 ; Move
G1 X6.2996 Y27.0428 E0.63569 F4800 ; Fill
G0 X7.0308 Y27.0428 F60000 ; Move
G1 X17.6988 Y16.3749 E0.63569 F4800 ; Fill
G0 X18.43 Y16.3749 F60000 ; Move
G1 X7.7621 Y27.0428 E0.63569 F4800 ; Fill
G0 X8.4934 Y27.0428 F60000 ; Move
G1 X19.1613 Y16.3749 E0.63569 F4800 ; Fill
G0 X19.8926 Y16.3749 F60000 ; Move
G1 X9.2246 Y27.0428 E0.63569 F4800 ; Fill
G0 X9.9559 Y27.0428 F60000 ; Move
G1 X20.6238 Y16.3749 E0.63569 F4800 ; Fill
G0 X21.3551 Y16.3749 F60000 ; Move
G1 X10.6871 Y27.0428 E0.63569 F4800 ; Fill
G0 X11.4184 Y27.0428 F60000 ; Move
G1 X22.0863 Y16.3749 E0.63569 F4800 ; Fill
G0 X22.8176 Y16.3749 F60000 ; Move
G1 X12.1497 Y27.0428 E0.63569 F4800 ; Fill
G0 X12.8809 Y27.0428 F60000 ; Move
G1 X23.5489 Y16.3749 E0.63569 F4800 ; Fill
G0 X24.2801 Y16.3749 F60000 ; Move
G1 X13.6122 Y27.0428 E0.63569 F4800 ; Fill
G0 X14.3434 Y27.0428 F60000 ; Move
G1 X25.0114 Y16.3749 E0.63569 F4800 ; Fill
G0 X25.7426 Y16.3749 F60000 ; Move
G1 X15.0747 Y27.0428 E0.63569 F4800 ; Fill
G0 X15.806 Y27.0428 F60000 ; Move
G1 X26.4739 Y16.3749 E0.63569 F4800 ; Fill
G0 X27.2052 Y16.3749 F60000 ; Move
G1 X16.5372 Y27.0428 E0.63569 F4800 ; Fill
G0 X17.2685 Y27.0428 F60000 ; Move
G1 X27.9364 Y16.3749 E0.63569 F4800 ; Fill
G0 X28.6677 Y16.3749 F60000 ; Move
G1 X17.9997 Y27.0428 E0.63569 F4800 ; Fill
G0 X18.731 Y27.0428 F60000 ; Move
G1 X29.3989 Y16.3749 E0.63569 F4800 ; Fill
G0 X30.1302 Y16.3749 F60000 ; Move
G1 X19.4623 Y27.0428 E0.63569 F4800 ; Fill
G0 X20.1935 Y27.0428 F60000 ; Move
G1 X30.8615 Y16.3749 E0.63569 F4800 ; Fill
G0 X31.5927 Y16.3749 F60000 ; Move
G1 X20.9248 Y27.0428 E0.63569 F4800 ; Fill
G0 X21.6561 Y27.0428 F60000 ; Move
G1 X32.324 Y16.3749 E0.63569 F4800 ; Fill
G0 X33.0553 Y16.3749 F60000 ; Move
G1 X22.3873 Y27.0428 E0.63569 F4800 ; Fill
G0 X23.1186 Y27.0428 F60000 ; Move
G1 X33.7865 Y16.3749 E0.63569 F4800 ; Fill
G0 X34.5178 Y16.3749 F60000 ; Move
G1 X23.8498 Y27.0428 E0.63569 F4800 ; Fill
G0 X24.5811 Y27.0428 F60000 ; Move
G1 X35.249 Y16.3749 E0.63569 F4800 ; Fill
G0 X35.9803 Y16.3749 F60000 ; Move
G1 X25.3124 Y27.0428 E0.63569 F4800 ; Fill
G0 X26.0436 Y27.0428 F60000 ; Move
G1 X36.7116 Y16.3749 E0.63569 F4800 ; Fill
G0 X37.4428 Y16.3749 F60000 ; Move
G1 X26.7749 Y27.0428 E0.63569 F4800 ; Fill
G0 X27.5061 Y27.0428 F60000 ; Move
G1 X38.1741 Y16.3749 E0.63569 F4800 ; Fill
G0 X38.9053 Y16.3749 F60000 ; Move
G1 X28.2374 Y27.0428 E0.63569 F4800 ; Fill
G0 X28.9687 Y27.0428 F60000 ; Move
G1 X39.6366 Y16.3749 E0.63569 F4800 ; Fill
G0 X40.3679 Y16.3749 F60000 ; Move
G1 X29.6999 Y27.0428 E0.63569 F4800 ; Fill
G0 X30.4312 Y27.0428 F60000 ; Move
G1 X41.0991 Y16.3749 E0.63569 F4800 ; Fill
G0 X41.8304 Y16.3749 F60000 ; Move
G1 X31.1624 Y27.0428 E0.63569 F4800 ; Fill
G0 X31.8937 Y27.0428 F60000 ; Move
G1 X42.5616 Y16.3749 E0.63569 F4800 ; Fill
G0 X43.2929 Y16.3749 F60000 ; Move
G1 X32.625 Y27.0428 E0.63569 F4800 ; Fill
G0 X33.3562 Y27.0428 F60000 ; Move
G1 X44.0242 Y16.3749 E0.63569 F4800 ; Fill
G0 X44.7554 Y16.3749 F60000 ; Move
G1 X34.0875 Y27.0428 E0.63569 F4800 ; Fill
G0 X34.8188 Y27.0428 F60000 ; Move
G1 X45.1599 Y16.7017 E0.61621 F4800 ; Fill
G0 X45.1599 Y17.4329 F60000 ; Move
G1 X35.55 Y27.0428 E0.57264 F4800 ; Fill
G0 X36.2813 Y27.0428 F60000 ; Move
G1 X45.1599 Y18.1642 E0.52906 F4800 ; Fill
G0 X45.1599 Y18.8955 F60000 ; Move
G1 X37.0125 Y27.0428 E0.48549 F4800 ; Fill
G0 X37.7438 Y27.0428 F60000 ; Move
G1 X45.1599 Y19.6267 E0.44191 F4800 ; Fill
G0 X45.1599 Y20.358 F60000 ; Move
G1 X38.4751 Y27.0428 E0.39834 F4800 ; Fill
G0 X39.2063 Y27.0428 F60000 ; Move
G1 X45.1599 Y21.0892 E0.35476 F4800 ; Fill
G0 X45.1599 Y21.8205 F60000 ; Move
G1 X39.9376 Y27.0428 E0.31119 F4800 ; Fill
G0 X40.6688 Y27.0428 F60000 ; Move
G1 X45.1599 Y22.5518 E0.26761 F4800 ; Fill
G0 X45.1599 Y23.283 F60000 ; Move
G1 X41.4001 Y27.0428 E0.22404 F4800 ; Fill
G0 X42.1314 Y27.0428 F60000 ; Move
G1 X45.1599 Y24.0143 E0.18046 F4800 ; Fill
G0 X45.1599 Y24.7455 F60000 ; Move
G1 X42.8626 Y27.0428 E0.13689 F4800 ; Fill
G0 X43.5939 Y27.0428 F60000 ; Move
G1 X45.1599 Y25.4768 E0.09331 F4800 ; Fill
G0 X45.1599 Y26.2081 F60000 ; Move
G1 X44.3251 Y27.0428 E0.04974 F4800 ; Fill
G0 X45.0564 Y27.0428 F60000 ; Move
G1 X45.1599 Y26.9393 E0.00617 F4800 ; Fill
G0 Z0.2 F60000 ; Move to layer height
G1 E-1 F6000 ; Retract
G1 Z0.4 F60000 ; Z hop
G0 X-62.9607 Y-26.5686 F60000 ; Move to pattern start

G1 Z0.2 F60000 ; Z hop return
G1 E1 F6000 ; Un-retract
SET_PRESSURE_ADVANCE ADVANCE=0.01 ; Set pressure advance
M117 PA 0.01
G1 X-43.6721 Y-7.28 E0.90487 F4800 ; Print pattern wall
G1 X-62.9607 Y12.0086 E0.90487 F4800 ; Print pattern wall
G1 E-1 F6000 ; Retract
G1 Z0.4 F60000 ; Z hop
G0 X-62.385 Y-26.5686 F60000 ; Move to start next pattern wall
G1 Z0.2 F60000 ; Z hop return
G1 E1 F6000 ; Un-retract
G1 X-43.0964 Y-7.28 E0.90487 F4800 ; Print pattern wall
G1 X-62.385 Y12.0086 E0.90487 F4800 ; Print pattern wall
G1 E-1 F6000 ; Retract
G1 Z0.4 F60000 ; Z hop
G0 X-61.8093 Y-26.5686 F60000 ; Move to start next pattern wall
G1 Z0.2 F60000 ; Z hop return
G1 E1 F6000 ; Un-retract
G1 X-42.5207 Y-7.28 E0.90487 F4800 ; Print pattern wall
G1 X-61.8093 Y12.0086 E0.90487 F4800 ; Print pattern wall
G1 E-1 F6000 ; Retract
G1 Z0.4 F60000 ; Z hop
G0 X-59.3593 Y-26.5686 F60000 ; Move to next pattern
G1 Z0.2 F60000 ; Z hop return
G1 E1 F6000 ; Un-retract
SET_PRESSURE_ADVANCE ADVANCE=0.011 ; Set pressure advance
M117 PA 0.011
G1 X-40.0707 Y-7.28 E0.90487 F4800 ; Print pattern wall
G1 X-59.3593 Y12.0086 E0.90487 F4800 ; Print pattern wall
G1 E-1 F6000 ; Retract
G1 Z0.4 F60000 ; Z hop
G0 X-58.7836 Y-26.5686 F60000 ; Move to start next pattern wall
G1 Z0.2 F60000 ; Z hop return
G1 E1 F6000 ; Un-retract
G1 X-39.495 Y-7.28 E0.90487 F4800 ; Print pattern wall
G1 X-58.7836 Y12.0086 E0.90487 F4800 ; Print pattern wall
G1 E-1 F6000 ; Retract
G1 Z0.4 F60000 ; Z hop
G0 X-58.2079 Y-26.5686 F60000 ; Move to start next pattern wall
G1 Z0.2 F60000 ; Z hop return
G1 E1 F6000 ; Un-retract
G1 X-38.9193 Y-7.28 E0.90487 F4800 ; Print pattern wall
G1 X-58.2079 Y12.0086 E0.90487 F4800 ; Print pattern wall
G1 E-1 F6000 ; Retract
G1 Z0.4 F60000 ; Z hop
G0 X-55.7579 Y-26.5686 F60000 ; Move to next pattern
G1 Z0.2 F60000 ; Z hop return
G1 E1 F6000 ; Un-retract
SET_PRESSURE_ADVANCE ADVANCE=0.012 ; Set pressure advance
M117 PA 0.012
G1 X-36.4693 Y-7.28 E0.90487 F4800 ; Print pattern wall
G1 X-55.7579 Y12.0086 E0.90487 F4800 ; Print pattern wall
G1 E-1 F6000 ; Retract
G1 Z0.4 F60000 ; Z hop
G0 X-55.1822 Y-26.5686 F60000 ; Move to start next pattern wall
G1 Z0.2 F60000 ; Z hop return
G1 E1 F6000 ; Un-retract
G1 X-35.8936 Y-7.28 E0.90487 F4800 ; Print pattern wall
G1 X-55.1822 Y12.0086 E0.90487 F4800 ; Print pattern wall
G1 E-1 F6000 ; Retract
G1 Z0.4 F60000 ; Z hop
G0 X-54.6065 Y-26.5686 F60000 ; Move to start next pattern wall
G1 Z0.2 F60000 ; Z hop return
G1 E1 F6000 ; Un-retract
G1 X-35.3179 Y-7.28 E0.90487 F4800 ; Print pattern wall
G1 X-54.6065 Y12.0086 E0.90487 F4800 ; Print pattern wall
G1 E-1 F6000 ; Retract
G1 Z0.4 F60000 ; Z hop
G0 X-52.1565 Y-26.5686 F60000 ; Move to next pattern
G1 Z0.2 F60000 ; Z hop return
G1 E1 F6000 ; Un-retract
SET_PRESSURE_ADVANCE ADVANCE=0.013 ; Set pressure advance
M117 PA 0.013
G1 X-32.8679 Y-7.28 E0.90487 F4800 ; Print pattern wall
G1 X-52.1565 Y12.0086 E0.90487 F4800 ; Print pattern wall
G1 E-1 F6000 ; Retract
G1 Z0.4 F60000 ; Z hop
G0 X-51.5808 Y-26.5686 F60000 ; Move to start next pattern wall
G1 Z0.2 F60000 ; Z hop return
G1 E1 F6000 ; Un-retract
G1 X-32.2922 Y-7.28 E0.90487 F4800 ; Print pattern wall
G1 X-51.5808 Y12.0086 E0.90487 F4800 ; Print pattern wall
G1 E-1 F6000 ; Retract
G1 Z0.4 F60000 ; Z hop
G0 X-51.0051 Y-26.5686 F60000 ; Move to start next pattern wall
G1 Z0.2 F60000 ; Z hop return
G1 E1 F6000 ; Un-retract
G1 X-31.7165 Y-7.28 E0.90487 F4800 ; Print pattern wall
G1 X-51.0051 Y12.0086 E0.90487 F4800 ; Print pattern wall
G1 E-1 F6000 ; Retract
G1 Z0.4 F60000 ; Z hop
G0 X-48.5551 Y-26.5686 F60000 ; Move to next pattern
G1 Z0.2 F60000 ; Z hop return
G1 E1 F6000 ; Un-retract
SET_PRESSURE_ADVANCE ADVANCE=0.014 ; Set pressure advance
M117 PA 0.014
G1 X-29.2665 Y-7.28 E0.90487 F4800 ; Print pattern wall
G1 X-48.5551 Y12.0086 E0.90487 F4800 ; Print pattern wall
G1 E-1 F6000 ; Retract
G1 Z0.4 F60000 ; Z hop
G0 X-47.9794 Y-26.5686 F60000 ; Move to start next pattern wall
G1 Z0.2 F60000 ; Z hop return
G1 E1 F6000 ; Un-retract
G1 X-28.6908 Y-7.28 E0.90487 F4800 ; Print pattern wall
G1 X-47.9794 Y12.0086 E0.90487 F4800 ; Print pattern wall
G1 E-1 F6000 ; Retract
G1 Z0.4 F60000 ; Z hop
G0 X-47.4037 Y-26.5686 F60000 ; Move to start next pattern wall
G1 Z0.2 F60000 ; Z hop return
G1 E1 F6000 ; Un-retract
G1 X-28.1151 Y-7.28 E0.90487 F4800 ; Print pattern wall
G1 X-47.4037 Y12.0086 E0.90487 F4800 ; Print pattern wall
G1 E-1 F6000 ; Retract
G1 Z0.4 F60000 ; Z hop
G0 X-44.9537 Y-26.5686 F60000 ; Move to next pattern
G1 Z0.2 F60000 ; Z hop return
G1 E1 F6000 ; Un-retract
SET_PRESSURE_ADVANCE ADVANCE=0.015 ; Set pressure advance
M117 PA 0.015
G1 X-25.6651 Y-7.28 E0.90487 F4800 ; Print pattern wall
G1 X-44.9537 Y12.0086 E0.90487 F4800 ; Print pattern wall
G1 E-1 F6000 ; Retract
G1 Z0.4 F60000 ; Z hop
G0 X-44.378 Y-26.5686 F60000 ; Move to start next pattern wall
G1 Z0.2 F60000 ; Z hop return
G1 E1 F6000 ; Un-retract
G1 X-25.0894 Y-7.28 E0.90487 F4800 ; Print pattern wall
G1 X-44.378 Y12.0086 E0.90487 F4800 ; Print pattern wall
G1 E-1 F6000 ; Retract
G1 Z0.4 F60000 ; Z hop
G0 X-43.8023 Y-26.5686 F60000 ; Move to start next pattern wall
G1 Z0.2 F60000 ; Z hop return
G1 E1 F6000 ; Un-retract
G1 X-24.5137 Y-7.28 E0.90487 F4800 ; Print pattern wall
G1 X-43.8023 Y12.0086 E0.90487 F4800 ; Print pattern wall
G1 E-1 F6000 ; Retract
G1 Z0.4 F60000 ; Z hop
G0 X-41.3523 Y-26.5686 F60000 ; Move to next pattern
G1 Z0.2 F60000 ; Z hop return
G1 E1 F6000 ; Un-retract
SET_PRESSURE_ADVANCE ADVANCE=0.016 ; Set pressure advance
M117 PA 0.016
G1 X-22.0637 Y-7.28 E0.90487 F4800 ; Print pattern wall
G1 X-41.3523 Y12.0086 E0.90487 F4800 ; Print pattern wall
G1 E-1 F6000 ; Retract
G1 Z0.4 F60000 ; Z hop
G0 X-40.7766 Y-26.5686 F60000 ; Move to start next pattern wall
G1 Z0.2 F60000 ; Z hop return
G1 E1 F6000 ; Un-retract
G1 X-21.488 Y-7.28 E0.90487 F4800 ; Print pattern wall
G1 X-40.7766 Y12.0086 E0.90487 F4800 ; Print pattern wall
G1 E-1 F6000 ; Retract
G1 Z0.4 F60000 ; Z hop
G0 X-40.2009 Y-26.5686 F60000 ; Move to start next pattern wall
G1 Z0.2 F60000 ; Z hop return
G1 E1 F6000 ; Un-retract
G1 X-20.9123 Y-7.28 E0.90487 F4800 ; Print pattern wall
G1 X-40.2009 Y12.0086 E0.90487 F4800 ; Print pattern wall
G1 E-1 F6000 ; Retract
G1 Z0.4 F60000 ; Z hop
G0 X-37.7509 Y-26.5686 F60000 ; Move to next pattern
G1 Z0.2 F60000 ; Z hop return
G1 E1 F6000 ; Un-retract
SET_PRESSURE_ADVANCE ADVANCE=0.017 ; Set pressure advance
M117 PA 0.017
G1 X-18.4623 Y-7.28 E0.90487 F4800 ; Print pattern wall
G1 X-37.7509 Y12.0086 E0.90487 F4800 ; Print pattern wall
G1 E-1 F6000 ; Retract
G1 Z0.4 F60000 ; Z hop
G0 X-37.1752 Y-26.5686 F60000 ; Move to start next pattern wall
G1 Z0.2 F60000 ; Z hop return
G1 E1 F6000 ; Un-retract
G1 X-17.8866 Y-7.28 E0.90487 F4800 ; Print pattern wall
G1 X-37.1752 Y12.0086 E0.90487 F4800 ; Print pattern wall
G1 E-1 F6000 ; Retract
G1 Z0.4 F60000 ; Z hop
G0 X-36.5995 Y-26.5686 F60000 ; Move to start next pattern wall
G1 Z0.2 F60000 ; Z hop return
G1 E1 F6000 ; Un-retract
G1 X-17.3109 Y-7.28 E0.90487 F4800 ; Print pattern wall
G1 X-36.5995 Y12.0086 E0.90487 F4800 ; Print pattern wall
G1 E-1 F6000 ; Retract
G1 Z0.4 F60000 ; Z hop
G0 X-34.1495 Y-26.5686 F60000 ; Move to next pattern
G1 Z0.2 F60000 ; Z hop return
G1 E1 F6000 ; Un-retract
SET_PRESSURE_ADVANCE ADVANCE=0.018 ; Set pressure advance
M117 PA 0.018
G1 X-14.8609 Y-7.28 E0.90487 F4800 ; Print pattern wall
G1 X-34.1495 Y12.0086 E0.90487 F4800 ; Print pattern wall
G1 E-1 F6000 ; Retract
G1 Z0.4 F60000 ; Z hop
G0 X-33.5738 Y-26.5686 F60000 ; Move to start next pattern wall
G1 Z0.2 F60000 ; Z hop return
G1 E1 F6000 ; Un-retract
G1 X-14.2852 Y-7.28 E0.90487 F4800 ; Print pattern wall
G1 X-33.5738 Y12.0086 E0.90487 F4800 ; Print pattern wall
G1 E-1 F6000 ; Retract
G1 Z0.4 F60000 ; Z hop
G0 X-32.9981 Y-26.5686 F60000 ; Move to start next pattern wall
G1 Z0.2 F60000 ; Z hop return
G1 E1 F6000 ; Un-retract
G1 X-13.7095 Y-7.28 E0.90487 F4800 ; Print pattern wall
G1 X-32.9981 Y12.0086 E0.90487 F4800 ; Print pattern wall
G1 E-1 F6000 ; Retract
G1 Z0.4 F60000 ; Z hop
G0 X-30.5481 Y-26.5686 F60000 ; Move to next pattern
G1 Z0.2 F60000 ; Z hop return
G1 E1 F6000 ; Un-retract
SET_PRESSURE_ADVANCE ADVANCE=0.019 ; Set pressure advance
M117 PA 0.019
G1 X-11.2595 Y-7.28 E0.90487 F4800 ; Print pattern wall
G1 X-30.5481 Y12.0086 E0.90487 F4800 ; Print pattern wall
G1 E-1 F6000 ; Retract
G1 Z0.4 F60000 ; Z hop
G0 X-29.9724 Y-26.5686 F60000 ; Move to start next pattern wall
G1 Z0.2 F60000 ; Z hop return
G1 E1 F6000 ; Un-retract
G1 X-10.6838 Y-7.28 E0.90487 F4800 ; Print pattern wall
G1 X-29.9724 Y12.0086 E0.90487 F4800 ; Print pattern wall
G1 E-1 F6000 ; Retract
G1 Z0.4 F60000 ; Z hop
G0 X-29.3967 Y-26.5686 F60000 ; Move to start next pattern wall
G1 Z0.2 F60000 ; Z hop return
G1 E1 F6000 ; Un-retract
G1 X-10.1081 Y-7.28 E0.90487 F4800 ; Print pattern wall
G1 X-29.3967 Y12.0086 E0.90487 F4800 ; Print pattern wall
G1 E-1 F6000 ; Retract
G1 Z0.4 F60000 ; Z hop
G0 X-26.9467 Y-26.5686 F60000 ; Move to next pattern
G1 Z0.2 F60000 ; Z hop return
G1 E1 F6000 ; Un-retract
SET_PRESSURE_ADVANCE ADVANCE=0.02 ; Set pressure advance
M117 PA 0.02
G1 X-7.6581 Y-7.28 E0.90487 F4800 ; Print pattern wall
G1 X-26.9467 Y12.0086 E0.90487 F4800 ; Print pattern wall
G1 E-1 F6000 ; Retract
G1 Z0.4 F60000 ; Z hop
G0 X-26.371 Y-26.5686 F60000 ; Move to start next pattern wall
G1 Z0.2 F60000 ; Z hop return
G1 E1 F6000 ; Un-retract
G1 X-7.0824 Y-7.28 E0.90487 F4800 ; Print pattern wall
G1 X-26.371 Y12.0086 E0.90487 F4800 ; Print pattern wall
G1 E-1 F6000 ; Retract
G1 Z0.4 F60000 ; Z hop
G0 X-25.7953 Y-26.5686 F60000 ; Move to start next pattern wall
G1 Z0.2 F60000 ; Z hop return
G1 E1 F6000 ; Un-retract
G1 X-6.5067 Y-7.28 E0.90487 F4800 ; Print pattern wall
G1 X-25.7953 Y12.0086 E0.90487 F4800 ; Print pattern wall
G1 E-1 F6000 ; Retract
G1 Z0.4 F60000 ; Z hop
G0 X-23.3453 Y-26.5686 F60000 ; Move to next pattern
G1 Z0.2 F60000 ; Z hop return
G1 E1 F6000 ; Un-retract
SET_PRESSURE_ADVANCE ADVANCE=0.021 ; Set pressure advance
M117 PA 0.021
G1 X-4.0567 Y-7.28 E0.90487 F4800 ; Print pattern wall
G1 X-23.3453 Y12.0086 E0.90487 F4800 ; Print pattern wall
G1 E-1 F6000 ; Retract
G1 Z0.4 F60000 ; Z hop
G0 X-22.7696 Y-26.5686 F60000 ; Move to start next pattern wall
G1 Z0.2 F60000 ; Z hop return
G1 E1 F6000 ; Un-retract
G1 X-3.481 Y-7.28 E0.90487 F4800 ; Print pattern wall
G1 X-22.7696 Y12.0086 E0.90487 F4800 ; Print pattern wall
G1 E-1 F6000 ; Retract
G1 Z0.4 F60000 ; Z hop
G0 X-22.1939 Y-26.5686 F60000 ; Move to start next pattern wall
G1 Z0.2 F60000 ; Z hop return
G1 E1 F6000 ; Un-retract
G1 X-2.9053 Y-7.28 E0.90487 F4800 ; Print pattern wall
G1 X-22.1939 Y12.0086 E0.90487 F4800 ; Print pattern wall
G1 E-1 F6000 ; Retract
G1 Z0.4 F60000 ; Z hop
G0 X-19.7439 Y-26.5686 F60000 ; Move to next pattern
G1 Z0.2 F60000 ; Z hop return
G1 E1 F6000 ; Un-retract
SET_PRESSURE_ADVANCE ADVANCE=0.022 ; Set pressure advance
M117 PA 0.022
G1 X-0.4553 Y-7.28 E0.90487 F4800 ; Print pattern wall
G1 X-19.7439 Y12.0086 E0.90487 F4800 ; Print pattern wall
G1 E-1 F6000 ; Retract
G1 Z0.4 F60000 ; Z hop
G0 X-19.1682 Y-26.5686 F60000 ; Move to start next pattern wall
G1 Z0.2 F60000 ; Z hop return
G1 E1 F6000 ; Un-retract
G1 X0.1204 Y-7.28 E0.90487 F4800 ; Print pattern wall
G1 X-19.1682 Y12.0086 E0.90487 F4800 ; Print pattern wall
G1 E-1 F6000 ; Retract
G1 Z0.4 F60000 ; Z hop
G0 X-18.5925 Y-26.5686 F60000 ; Move to start next pattern wall
G1 Z0.2 F60000 ; Z hop return
G1 E1 F6000 ; Un-retract
G1 X0.6961 Y-7.28 E0.90487 F4800 ; Print pattern wall
G1 X-18.5925 Y12.0086 E0.90487 F4800 ; Print pattern wall
G1 E-1 F6000 ; Retract
G1 Z0.4 F60000 ; Z hop
G0 X-16.1425 Y-26.5686 F60000 ; Move to next pattern
G1 Z0.2 F60000 ; Z hop return
G1 E1 F6000 ; Un-retract
SET_PRESSURE_ADVANCE ADVANCE=0.023 ; Set pressure advance
M117 PA 0.023
G1 X3.1461 Y-7.28 E0.90487 F4800 ; Print pattern wall
G1 X-16.1425 Y12.0086 E0.90487 F4800 ; Print pattern wall
G1 E-1 F6000 ; Retract
G1 Z0.4 F60000 ; Z hop
G0 X-15.5669 Y-26.5686 F60000 ; Move to start next pattern wall
G1 Z0.2 F60000 ; Z hop return
G1 E1 F6000 ; Un-retract
G1 X3.7218 Y-7.28 E0.90487 F4800 ; Print pattern wall
G1 X-15.5669 Y12.0086 E0.90487 F4800 ; Print pattern wall
G1 E-1 F6000 ; Retract
G1 Z0.4 F60000 ; Z hop
G0 X-14.9912 Y-26.5686 F60000 ; Move to start next pattern wall
G1 Z0.2 F60000 ; Z hop return
G1 E1 F6000 ; Un-retract
G1 X4.2975 Y-7.28 E0.90487 F4800 ; Print pattern wall
G1 X-14.9912 Y12.0086 E0.90487 F4800 ; Print pattern wall
G1 E-1 F6000 ; Retract
G1 Z0.4 F60000 ; Z hop
G0 X-12.5412 Y-26.5686 F60000 ; Move to next pattern
G1 Z0.2 F60000 ; Z hop return
G1 E1 F6000 ; Un-retract
SET_PRESSURE_ADVANCE ADVANCE=0.024 ; Set pressure advance
M117 PA 0.024
G1 X6.7475 Y-7.28 E0.90487 F4800 ; Print pattern wall
G1 X-12.5412 Y12.0086 E0.90487 F4800 ; Print pattern wall
G1 E-1 F6000 ; Retract
G1 Z0.4 F60000 ; Z hop
G0 X-11.9655 Y-26.5686 F60000 ; Move to start next pattern wall
G1 Z0.2 F60000 ; Z hop return
G1 E1 F6000 ; Un-retract
G1 X7.3232 Y-7.28 E0.90487 F4800 ; Print pattern wall
G1 X-11.9655 Y12.0086 E0.90487 F4800 ; Print pattern wall
G1 E-1 F6000 ; Retract
G1 Z0.4 F60000 ; Z hop
G0 X-11.3898 Y-26.5686 F60000 ; Move to start next pattern wall
G1 Z0.2 F60000 ; Z hop return
G1 E1 F6000 ; Un-retract
G1 X7.8989 Y-7.28 E0.90487 F4800 ; Print pattern wall
G1 X-11.3898 Y12.0086 E0.90487 F4800 ; Print pattern wall
G1 E-1 F6000 ; Retract
G1 Z0.4 F60000 ; Z hop
G0 X-8.9398 Y-26.5686 F60000 ; Move to next pattern
G1 Z0.2 F60000 ; Z hop return
G1 E1 F6000 ; Un-retract
SET_PRESSURE_ADVANCE ADVANCE=0.025 ; Set pressure advance
M117 PA 0.025
G1 X10.3489 Y-7.28 E0.90487 F4800 ; Print pattern wall
G1 X-8.9398 Y12.0086 E0.90487 F4800 ; Print pattern wall
G1 E-1 F6000 ; Retract
G1 Z0.4 F60000 ; Z hop
G0 X-8.3641 Y-26.5686 F60000 ; Move to start next pattern wall
G1 Z0.2 F60000 ; Z hop return
G1 E1 F6000 ; Un-retract
G1 X10.9246 Y-7.28 E0.90487 F4800 ; Print pattern wall
G1 X-8.3641 Y12.0086 E0.90487 F4800 ; Print pattern wall
G1 E-1 F6000 ; Retract
G1 Z0.4 F60000 ; Z hop
G0 X-7.7884 Y-26.5686 F60000 ; Move to start next pattern wall
G1 Z0.2 F60000 ; Z hop return
G1 E1 F6000 ; Un-retract
G1 X11.5003 Y-7.28 E0.90487 F4800 ; Print pattern wall
G1 X-7.7884 Y12.0086 E0.90487 F4800 ; Print pattern wall
G1 E-1 F6000 ; Retract
G1 Z0.4 F60000 ; Z hop
G0 X-5.3384 Y-26.5686 F60000 ; Move to next pattern
G1 Z0.2 F60000 ; Z hop return
G1 E1 F6000 ; Un-retract
SET_PRESSURE_ADVANCE ADVANCE=0.026 ; Set pressure advance
M117 PA 0.026
G1 X13.9503 Y-7.28 E0.90487 F4800 ; Print pattern wall
G1 X-5.3384 Y12.0086 E0.90487 F4800 ; Print pattern wall
G1 E-1 F6000 ; Retract
G1 Z0.4 F60000 ; Z hop
G0 X-4.7627 Y-26.5686 F60000 ; Move to start next pattern wall
G1 Z0.2 F60000 ; Z hop return
G1 E1 F6000 ; Un-retract
G1 X14.526 Y-7.28 E0.90487 F4800 ; Print pattern wall
G1 X-4.7627 Y12.0086 E0.90487 F4800 ; Print pattern wall
G1 E-1 F6000 ; Retract
G1 Z0.4 F60000 ; Z hop
G0 X-4.187 Y-26.5686 F60000 ; Move to start next pattern wall
G1 Z0.2 F60000 ; Z hop return
G1 E1 F6000 ; Un-retract
G1 X15.1017 Y-7.28 E0.90487 F4800 ; Print pattern wall
G1 X-4.187 Y12.0086 E0.90487 F4800 ; Print pattern wall
G1 E-1 F6000 ; Retract
G1 Z0.4 F60000 ; Z hop
G0 X-1.737 Y-26.5686 F60000 ; Move to next pattern
G1 Z0.2 F60000 ; Z hop return
G1 E1 F6000 ; Un-retract
SET_PRESSURE_ADVANCE ADVANCE=0.027 ; Set pressure advance
M117 PA 0.027
G1 X17.5517 Y-7.28 E0.90487 F4800 ; Print pattern wall
G1 X-1.737 Y12.0086 E0.90487 F4800 ; Print pattern wall
G1 E-1 F6000 ; Retract
G1 Z0.4 F60000 ; Z hop
G0 X-1.1613 Y-26.5686 F60000 ; Move to start next pattern wall
G1 Z0.2 F60000 ; Z hop return
G1 E1 F6000 ; Un-retract
G1 X18.1274 Y-7.28 E0.90487 F4800 ; Print pattern wall
G1 X-1.1613 Y12.0086 E0.90487 F4800 ; Print pattern wall
G1 E-1 F6000 ; Retract
G1 Z0.4 F60000 ; Z hop
G0 X-0.5856 Y-26.5686 F60000 ; Move to start next pattern wall
G1 Z0.2 F60000 ; Z hop return
G1 E1 F6000 ; Un-retract
G1 X18.7031 Y-7.28 E0.90487 F4800 ; Print pattern wall
G1 X-0.5856 Y12.0086 E0.90487 F4800 ; Print pattern wall
G1 E-1 F6000 ; Retract
G1 Z0.4 F60000 ; Z hop
G0 X1.8644 Y-26.5686 F60000 ; Move to next pattern
G1 Z0.2 F60000 ; Z hop return
G1 E1 F6000 ; Un-retract
SET_PRESSURE_ADVANCE ADVANCE=0.028 ; Set pressure advance
M117 PA 0.028
G1 X21.1531 Y-7.28 E0.90487 F4800 ; Print pattern wall
G1 X1.8644 Y12.0086 E0.90487 F4800 ; Print pattern wall
G1 E-1 F6000 ; Retract
G1 Z0.4 F60000 ; Z hop
G0 X2.4401 Y-26.5686 F60000 ; Move to start next pattern wall
G1 Z0.2 F60000 ; Z hop return
G1 E1 F6000 ; Un-retract
G1 X21.7288 Y-7.28 E0.90487 F4800 ; Print pattern wall
G1 X2.4401 Y12.0086 E0.90487 F4800 ; Print pattern wall
G1 E-1 F6000 ; Retract
G1 Z0.4 F60000 ; Z hop
G0 X3.0158 Y-26.5686 F60000 ; Move to start next pattern wall
G1 Z0.2 F60000 ; Z hop return
G1 E1 F6000 ; Un-retract
G1 X22.3045 Y-7.28 E0.90487 F4800 ; Print pattern wall
G1 X3.0158 Y12.0086 E0.90487 F4800 ; Print pattern wall
G1 E-1 F6000 ; Retract
G1 Z0.4 F60000 ; Z hop
G0 X5.4658 Y-26.5686 F60000 ; Move to next pattern
G1 Z0.2 F60000 ; Z hop return
G1 E1 F6000 ; Un-retract
SET_PRESSURE_ADVANCE ADVANCE=0.029 ; Set pressure advance
M117 PA 0.029
G1 X24.7545 Y-7.28 E0.90487 F4800 ; Print pattern wall
G1 X5.4658 Y12.0086 E0.90487 F4800 ; Print pattern wall
G1 E-1 F6000 ; Retract
G1 Z0.4 F60000 ; Z hop
G0 X6.0415 Y-26.5686 F60000 ; Move to start next pattern wall
G1 Z0.2 F60000 ; Z hop return
G1 E1 F6000 ; Un-retract
G1 X25.3301 Y-7.28 E0.90487 F4800 ; Print pattern wall
G1 X6.0415 Y12.0086 E0.90487 F4800 ; Print pattern wall
G1 E-1 F6000 ; Retract
G1 Z0.4 F60000 ; Z hop
G0 X6.6172 Y-26.5686 F60000 ; Move to start next pattern wall
G1 Z0.2 F60000 ; Z hop return
G1 E1 F6000 ; Un-retract
G1 X25.9058 Y-7.28 E0.90487 F4800 ; Print pattern wall
G1 X6.6172 Y12.0086 E0.90487 F4800 ; Print pattern wall
G1 E-1 F6000 ; Retract
G1 Z0.4 F60000 ; Z hop
G0 X9.0672 Y-26.5686 F60000 ; Move to next pattern
G1 Z0.2 F60000 ; Z hop return
G1 E1 F6000 ; Un-retract
SET_PRESSURE_ADVANCE ADVANCE=0.03 ; Set pressure advance
M117 PA 0.03
G1 X28.3558 Y-7.28 E0.90487 F4800 ; Print pattern wall
G1 X9.0672 Y12.0086 E0.90487 F4800 ; Print pattern wall
G1 E-1 F6000 ; Retract
G1 Z0.4 F60000 ; Z hop
G0 X9.6429 Y-26.5686 F60000 ; Move to start next pattern wall
G1 Z0.2 F60000 ; Z hop return
G1 E1 F6000 ; Un-retract
G1 X28.9315 Y-7.28 E0.90487 F4800 ; Print pattern wall
G1 X9.6429 Y12.0086 E0.90487 F4800 ; Print pattern wall
G1 E-1 F6000 ; Retract
G1 Z0.4 F60000 ; Z hop
G0 X10.2186 Y-26.5686 F60000 ; Move to start next pattern wall
G1 Z0.2 F60000 ; Z hop return
G1 E1 F6000 ; Un-retract
G1 X29.5072 Y-7.28 E0.90487 F4800 ; Print pattern wall
G1 X10.2186 Y12.0086 E0.90487 F4800 ; Print pattern wall
G1 E-1 F6000 ; Retract
G1 Z0.4 F60000 ; Z hop
G0 X12.6686 Y-26.5686 F60000 ; Move to next pattern
G1 Z0.2 F60000 ; Z hop return
G1 E1 F6000 ; Un-retract
SET_PRESSURE_ADVANCE ADVANCE=0.031 ; Set pressure advance
M117 PA 0.031
G1 X31.9572 Y-7.28 E0.90487 F4800 ; Print pattern wall
G1 X12.6686 Y12.0086 E0.90487 F4800 ; Print pattern wall
G1 E-1 F6000 ; Retract
G1 Z0.4 F60000 ; Z hop
G0 X13.2443 Y-26.5686 F60000 ; Move to start next pattern wall
G1 Z0.2 F60000 ; Z hop return
G1 E1 F6000 ; Un-retract
G1 X32.5329 Y-7.28 E0.90487 F4800 ; Print pattern wall
G1 X13.2443 Y12.0086 E0.90487 F4800 ; Print pattern wall
G1 E-1 F6000 ; Retract
G1 Z0.4 F60000 ; Z hop
G0 X13.82 Y-26.5686 F60000 ; Move to start next pattern wall
G1 Z0.2 F60000 ; Z hop return
G1 E1 F6000 ; Un-retract
G1 X33.1086 Y-7.28 E0.90487 F4800 ; Print pattern wall
G1 X13.82 Y12.0086 E0.90487 F4800 ; Print pattern wall
G1 E-1 F6000 ; Retract
G1 Z0.4 F60000 ; Z hop
G0 X16.27 Y-26.5686 F60000 ; Move to next pattern
G1 Z0.2 F60000 ; Z hop return
G1 E1 F6000 ; Un-retract
SET_PRESSURE_ADVANCE ADVANCE=0.032 ; Set pressure advance
M117 PA 0.032
G1 X35.5586 Y-7.28 E0.90487 F4800 ; Print pattern wall
G1 X16.27 Y12.0086 E0.90487 F4800 ; Print pattern wall
G1 E-1 F6000 ; Retract
G1 Z0.4 F60000 ; Z hop
G0 X16.8457 Y-26.5686 F60000 ; Move to start next pattern wall
G1 Z0.2 F60000 ; Z hop return
G1 E1 F6000 ; Un-retract
G1 X36.1343 Y-7.28 E0.90487 F4800 ; Print pattern wall
G1 X16.8457 Y12.0086 E0.90487 F4800 ; Print pattern wall
G1 E-1 F6000 ; Retract
G1 Z0.4 F60000 ; Z hop
G0 X17.4214 Y-26.5686 F60000 ; Move to start next pattern wall
G1 Z0.2 F60000 ; Z hop return
G1 E1 F6000 ; Un-retract
G1 X36.71 Y-7.28 E0.90487 F4800 ; Print pattern wall
G1 X17.4214 Y12.0086 E0.90487 F4800 ; Print pattern wall
G1 E-1 F6000 ; Retract
G1 Z0.4 F60000 ; Z hop
G0 X19.8714 Y-26.5686 F60000 ; Move to next pattern
G1 Z0.2 F60000 ; Z hop return
G1 E1 F6000 ; Un-retract
SET_PRESSURE_ADVANCE ADVANCE=0.033 ; Set pressure advance
M117 PA 0.033
G1 X39.16 Y-7.28 E0.90487 F4800 ; Print pattern wall
G1 X19.8714 Y12.0086 E0.90487 F4800 ; Print pattern wall
G1 E-1 F6000 ; Retract
G1 Z0.4 F60000 ; Z hop
G0 X20.4471 Y-26.5686 F60000 ; Move to start next pattern wall
G1 Z0.2 F60000 ; Z hop return
G1 E1 F6000 ; Un-retract
G1 X39.7357 Y-7.28 E0.90487 F4800 ; Print pattern wall
G1 X20.4471 Y12.0086 E0.90487 F4800 ; Print pattern wall
G1 E-1 F6000 ; Retract
G1 Z0.4 F60000 ; Z hop
G0 X21.0228 Y-26.5686 F60000 ; Move to start next pattern wall
G1 Z0.2 F60000 ; Z hop return
G1 E1 F6000 ; Un-retract
G1 X40.3114 Y-7.28 E0.90487 F4800 ; Print pattern wall
G1 X21.0228 Y12.0086 E0.90487 F4800 ; Print pattern wall
G1 E-1 F6000 ; Retract
G1 Z0.4 F60000 ; Z hop
G0 X23.4728 Y-26.5686 F60000 ; Move to next pattern
G1 Z0.2 F60000 ; Z hop return
G1 E1 F6000 ; Un-retract
SET_PRESSURE_ADVANCE ADVANCE=0.034 ; Set pressure advance
M117 PA 0.034
G1 X42.7614 Y-7.28 E0.90487 F4800 ; Print pattern wall
G1 X23.4728 Y12.0086 E0.90487 F4800 ; Print pattern wall
G1 E-1 F6000 ; Retract
G1 Z0.4 F60000 ; Z hop
G0 X24.0485 Y-26.5686 F60000 ; Move to start next pattern wall
G1 Z0.2 F60000 ; Z hop return
G1 E1 F6000 ; Un-retract
G1 X43.3371 Y-7.28 E0.90487 F4800 ; Print pattern wall
G1 X24.0485 Y12.0086 E0.90487 F4800 ; Print pattern wall
G1 E-1 F6000 ; Retract
G1 Z0.4 F60000 ; Z hop
G0 X24.6242 Y-26.5686 F60000 ; Move to start next pattern wall
G1 Z0.2 F60000 ; Z hop return
G1 E1 F6000 ; Un-retract
G1 X43.9128 Y-7.28 E0.90487 F4800 ; Print pattern wall
G1 X24.6242 Y12.0086 E0.90487 F4800 ; Print pattern wall
G1 E-1 F6000 ; Retract
G1 Z0.4 F60000 ; Z hop
G0 X27.0742 Y-26.5686 F60000 ; Move to next pattern
G1 Z0.2 F60000 ; Z hop return
G1 E1 F6000 ; Un-retract
SET_PRESSURE_ADVANCE ADVANCE=0.035 ; Set pressure advance
M117 PA 0.035
G1 X46.3628 Y-7.28 E0.90487 F4800 ; Print pattern wall
G1 X27.0742 Y12.0086 E0.90487 F4800 ; Print pattern wall
G1 E-1 F6000 ; Retract
G1 Z0.4 F60000 ; Z hop
G0 X27.6499 Y-26.5686 F60000 ; Move to start next pattern wall
G1 Z0.2 F60000 ; Z hop return
G1 E1 F6000 ; Un-retract
G1 X46.9385 Y-7.28 E0.90487 F4800 ; Print pattern wall
G1 X27.6499 Y12.0086 E0.90487 F4800 ; Print pattern wall
G1 E-1 F6000 ; Retract
G1 Z0.4 F60000 ; Z hop
G0 X28.2256 Y-26.5686 F60000 ; Move to start next pattern wall
G1 Z0.2 F60000 ; Z hop return
G1 E1 F6000 ; Un-retract
G1 X47.5142 Y-7.28 E0.90487 F4800 ; Print pattern wall
G1 X28.2256 Y12.0086 E0.90487 F4800 ; Print pattern wall
G1 E-1 F6000 ; Retract
G1 Z0.4 F60000 ; Z hop
G0 X30.6756 Y-26.5686 F60000 ; Move to next pattern
G1 Z0.2 F60000 ; Z hop return
G1 E1 F6000 ; Un-retract
SET_PRESSURE_ADVANCE ADVANCE=0.036 ; Set pressure advance
M117 PA 0.036
G1 X49.9642 Y-7.28 E0.90487 F4800 ; Print pattern wall
G1 X30.6756 Y12.0086 E0.90487 F4800 ; Print pattern wall
G1 E-1 F6000 ; Retract
G1 Z0.4 F60000 ; Z hop
G0 X31.2513 Y-26.5686 F60000 ; Move to start next pattern wall
G1 Z0.2 F60000 ; Z hop return
G1 E1 F6000 ; Un-retract
G1 X50.5399 Y-7.28 E0.90487 F4800 ; Print pattern wall
G1 X31.2513 Y12.0086 E0.90487 F4800 ; Print pattern wall
G1 E-1 F6000 ; Retract
G1 Z0.4 F60000 ; Z hop
G0 X31.827 Y-26.5686 F60000 ; Move to start next pattern wall
G1 Z0.2 F60000 ; Z hop return
G1 E1 F6000 ; Un-retract
G1 X51.1156 Y-7.28 E0.90487 F4800 ; Print pattern wall
G1 X31.827 Y12.0086 E0.90487 F4800 ; Print pattern wall
G1 E-1 F6000 ; Retract
G1 Z0.4 F60000 ; Z hop
G0 X34.277 Y-26.5686 F60000 ; Move to next pattern
G1 Z0.2 F60000 ; Z hop return
G1 E1 F6000 ; Un-retract
SET_PRESSURE_ADVANCE ADVANCE=0.037 ; Set pressure advance
M117 PA 0.037
G1 X53.5656 Y-7.28 E0.90487 F4800 ; Print pattern wall
G1 X34.277 Y12.0086 E0.90487 F4800 ; Print pattern wall
G1 E-1 F6000 ; Retract
G1 Z0.4 F60000 ; Z hop
G0 X34.8527 Y-26.5686 F60000 ; Move to start next pattern wall
G1 Z0.2 F60000 ; Z hop return
G1 E1 F6000 ; Un-retract
G1 X54.1413 Y-7.28 E0.90487 F4800 ; Print pattern wall
G1 X34.8527 Y12.0086 E0.90487 F4800 ; Print pattern wall
G1 E-1 F6000 ; Retract
G1 Z0.4 F60000 ; Z hop
G0 X35.4284 Y-26.5686 F60000 ; Move to start next pattern wall
G1 Z0.2 F60000 ; Z hop return
G1 E1 F6000 ; Un-retract
G1 X54.717 Y-7.28 E0.90487 F4800 ; Print pattern wall
G1 X35.4284 Y12.0086 E0.90487 F4800 ; Print pattern wall
G1 E-1 F6000 ; Retract
G1 Z0.4 F60000 ; Z hop
G0 X37.8784 Y-26.5686 F60000 ; Move to next pattern
G1 Z0.2 F60000 ; Z hop return
G1 E1 F6000 ; Un-retract
SET_PRESSURE_ADVANCE ADVANCE=0.038 ; Set pressure advance
M117 PA 0.038
G1 X57.167 Y-7.28 E0.90487 F4800 ; Print pattern wall
G1 X37.8784 Y12.0086 E0.90487 F4800 ; Print pattern wall
G1 E-1 F6000 ; Retract
G1 Z0.4 F60000 ; Z hop
G0 X38.4541 Y-26.5686 F60000 ; Move to start next pattern wall
G1 Z0.2 F60000 ; Z hop return
G1 E1 F6000 ; Un-retract
G1 X57.7427 Y-7.28 E0.90487 F4800 ; Print pattern wall
G1 X38.4541 Y12.0086 E0.90487 F4800 ; Print pattern wall
G1 E-1 F6000 ; Retract
G1 Z0.4 F60000 ; Z hop
G0 X39.0298 Y-26.5686 F60000 ; Move to start next pattern wall
G1 Z0.2 F60000 ; Z hop return
G1 E1 F6000 ; Un-retract
G1 X58.3184 Y-7.28 E0.90487 F4800 ; Print pattern wall
G1 X39.0298 Y12.0086 E0.90487 F4800 ; Print pattern wall
G1 E-1 F6000 ; Retract
G1 Z0.4 F60000 ; Z hop
G0 X41.4798 Y-26.5686 F60000 ; Move to next pattern
G1 Z0.2 F60000 ; Z hop return
G1 E1 F6000 ; Un-retract
SET_PRESSURE_ADVANCE ADVANCE=0.039 ; Set pressure advance
M117 PA 0.039
G1 X60.7684 Y-7.28 E0.90487 F4800 ; Print pattern wall
G1 X41.4798 Y12.0086 E0.90487 F4800 ; Print pattern wall
G1 E-1 F6000 ; Retract
G1 Z0.4 F60000 ; Z hop
G0 X42.0555 Y-26.5686 F60000 ; Move to start next pattern wall
G1 Z0.2 F60000 ; Z hop return
G1 E1 F6000 ; Un-retract
G1 X61.3441 Y-7.28 E0.90487 F4800 ; Print pattern wall
G1 X42.0555 Y12.0086 E0.90487 F4800 ; Print pattern wall
G1 E-1 F6000 ; Retract
G1 Z0.4 F60000 ; Z hop
G0 X42.6312 Y-26.5686 F60000 ; Move to start next pattern wall
G1 Z0.2 F60000 ; Z hop return
G1 E1 F6000 ; Un-retract
G1 X61.9198 Y-7.28 E0.90487 F4800 ; Print pattern wall
G1 X42.6312 Y12.0086 E0.90487 F4800 ; Print pattern wall
G1 E-1 F6000 ; Retract
G1 Z0.4 F60000 ; Z hop
G0 X45.0812 Y-26.5686 F60000 ; Move to next pattern
G1 Z0.2 F60000 ; Z hop return
G1 E1 F6000 ; Un-retract
SET_PRESSURE_ADVANCE ADVANCE=0.04 ; Set pressure advance
M117 PA 0.04
G1 X64.3698 Y-7.28 E0.90487 F4800 ; Print pattern wall
G1 X45.0812 Y12.0086 E0.90487 F4800 ; Print pattern wall
G1 E-1 F6000 ; Retract
G1 Z0.4 F60000 ; Z hop
G0 X45.6569 Y-26.5686 F60000 ; Move to start next pattern wall
G1 Z0.2 F60000 ; Z hop return
G1 E1 F6000 ; Un-retract
G1 X64.9455 Y-7.28 E0.90487 F4800 ; Print pattern wall
G1 X45.6569 Y12.0086 E0.90487 F4800 ; Print pattern wall
G1 E-1 F6000 ; Retract
G1 Z0.4 F60000 ; Z hop
G0 X46.2326 Y-26.5686 F60000 ; Move to start next pattern wall
G1 Z0.2 F60000 ; Z hop return
G1 E1 F6000 ; Un-retract
G1 X65.5212 Y-7.28 E0.90487 F4800 ; Print pattern wall
G1 X46.2326 Y12.0086 E0.90487 F4800 ; Print pattern wall
G1 E-1 F6000 ; Retract
G1 Z0.4 F60000 ; Z hop
G0 X-62.9607 Y-26.5686 F60000 ; Move back to start position
G1 Z0.2 F60000 ; Z hop return
G1 E1 F6000 ; Un-retract
M106 S255 ; Set fan speed
G0 Z0.4 F60000 ; Move to layer height
SET_PRESSURE_ADVANCE ADVANCE=0.01 ; Set pressure advance to start value for numbering
M117 PA 0.01
G1 E-1 F6000 ; Retract
G1 Z0.6 F60000 ; Z hop
G0 X-66.3096 Y15.3832 F60000 ; Move
G1 Z0.4 F60000 ; Z hop return
G1 E1 F6000 ; Un-retract
G1 X-64.3096 Y15.3832 E0.06634 F4800 ; Glyph: 0
G1 X-62.3096 Y15.3832 E0.06634 F4800 ; Glyph: 0
G1 X-62.3096 Y17.3832 E0.06634 F4800 ; Glyph: 0
G1 X-64.3096 Y17.3832 E0.06634 F4800 ; Glyph: 0
G1 X-66.3096 Y17.3832 E0.06634 F4800 ; Glyph: 0
G1 X-66.3096 Y15.3832 E0.06634 F4800 ; Glyph: 0
G1 E-1 F6000 ; Retract
G1 Z0.6 F60000 ; Z hop
G0 X-62.3096 Y18.3832 F60000 ; Move
G1 Z0.4 F60000 ; Z hop return
G1 E1 F6000 ; Un-retract
G1 X-63.0596 Y18.3832 E0.02488 F4800 ; Glyph: .
G1 E-1 F6000 ; Retract
G1 Z0.6 F60000 ; Z hop
G0 X-66.3096 Y19.3832 F60000 ; Move
G1 Z0.4 F60000 ; Z hop return
G1 E1 F6000 ; Un-retract
G1 X-64.3096 Y19.3832 E0.06634 F4800 ; Glyph: 0
G1 X-62.3096 Y19.3832 E0.06634 F4800 ; Glyph: 0
G1 X-62.3096 Y21.3832 E0.06634 F4800 ; Glyph: 0
G1 X-64.3096 Y21.3832 E0.06634 F4800 ; Glyph: 0
G1 X-66.3096 Y21.3832 E0.06634 F4800 ; Glyph: 0
G1 X-66.3096 Y19.3832 E0.06634 F4800 ; Glyph: 0
G1 E-1 F6000 ; Retract
G1 Z0.6 F60000 ; Z hop
G0 X-66.3096 Y22.3832 F60000 ; Move
G1 Z0.4 F60000 ; Z hop return
G1 E1 F6000 ; Un-retract
G1 X-64.3096 Y22.3832 E0.06634 F4800 ; Glyph: 1
G1 X-62.3096 Y22.3832 E0.06634 F4800 ; Glyph: 1
G1 E-1 F6000 ; Retract
G1 Z0.6 F60000 ; Z hop
G0 X-59.1068 Y15.3832 F60000 ; Move
G1 Z0.4 F60000 ; Z hop return
G1 E1 F6000 ; Un-retract
G1 X-57.1068 Y15.3832 E0.06634 F4800 ; Glyph: 0
G1 X-55.1068 Y15.3832 E0.06634 F4800 ; Glyph: 0
G1 X-55.1068 Y17.3832 E0.06634 F4800 ; Glyph: 0
G1 X-57.1068 Y17.3832 E0.06634 F4800 ; Glyph: 0
G1 X-59.1068 Y17.3832 E0.06634 F4800 ; Glyph: 0
G1 X-59.1068 Y15.3832 E0.06634 F4800 ; Glyph: 0
G1 E-1 F6000 ; Retract
G1 Z0.6 F60000 ; Z hop
G0 X-55.1068 Y18.3832 F60000 ; Move
G1 Z0.4 F60000 ; Z hop return
G1 E1 F6000 ; Un-retract
G1 X-55.8568 Y18.3832 E0.02488 F4800 ; Glyph: .
G1 E-1 F6000 ; Retract
G1 Z0.6 F60000 ; Z hop
G0 X-59.1068 Y19.3832 F60000 ; Move
G1 Z0.4 F60000 ; Z hop return
G1 E1 F6000 ; Un-retract
G1 X-57.1068 Y19.3832 E0.06634 F4800 ; Glyph: 0
G1 X-55.1068 Y19.3832 E0.06634 F4800 ; Glyph: 0
G1 X-55.1068 Y21.3832 E0.06634 F4800 ; Glyph: 0
G1 X-57.1068 Y21.3832 E0.06634 F4800 ; Glyph: 0
G1 X-59.1068 Y21.3832 E0.06634 F4800 ; Glyph: 0
G1 X-59.1068 Y19.3832 E0.06634 F4800 ; Glyph: 0
G1 E-1 F6000 ; Retract
G1 Z0.6 F60000 ; Z hop
G0 X-59.1068 Y22.3832 F60000 ; Move
G1 Z0.4 F60000 ; Z hop return
G1 E1 F6000 ; Un-retract
G1 X-57.1068 Y22.3832 E0.06634 F4800 ; Glyph: 1
G1 X-55.1068 Y22.3832 E0.06634 F4800 ; Glyph: 1
G1 E-1 F6000 ; Retract
G1 Z0.6 F60000 ; Z hop
G0 X-59.1068 Y23.3832 F60000 ; Move
G1 Z0.4 F60000 ; Z hop return
G1 E1 F6000 ; Un-retract
G1 X-59.1068 Y25.3832 E0.06634 F4800 ; Glyph: 2
G1 X-57.1068 Y25.3832 E0.06634 F4800 ; Glyph: 2
G1 X-57.1068 Y23.3832 E0.06634 F4800 ; Glyph: 2
G1 X-55.1068 Y23.3832 E0.06634 F4800 ; Glyph: 2
G1 X-55.1068 Y25.3832 E0.06634 F4800 ; Glyph: 2
G1 E-1 F6000 ; Retract
G1 Z0.6 F60000 ; Z hop
G0 X-51.904 Y15.3832 F60000 ; Move
G1 Z0.4 F60000 ; Z hop return
G1 E1 F6000 ; Un-retract
G1 X-49.904 Y15.3832 E0.06634 F4800 ; Glyph: 0
G1 X-47.904 Y15.3832 E0.06634 F4800 ; Glyph: 0
G1 X-47.904 Y17.3832 E0.06634 F4800 ; Glyph: 0
G1 X-49.904 Y17.3832 E0.06634 F4800 ; Glyph: 0
G1 X-51.904 Y17.3832 E0.06634 F4800 ; Glyph: 0
G1 X-51.904 Y15.3832 E0.06634 F4800 ; Glyph: 0
G1 E-1 F6000 ; Retract
G1 Z0.6 F60000 ; Z hop
G0 X-47.904 Y18.3832 F60000 ; Move
G1 Z0.4 F60000 ; Z hop return
G1 E1 F6000 ; Un-retract
G1 X-48.654 Y18.3832 E0.02488 F4800 ; Glyph: .
G1 E-1 F6000 ; Retract
G1 Z0.6 F60000 ; Z hop
G0 X-51.904 Y19.3832 F60000 ; Move
G1 Z0.4 F60000 ; Z hop return
G1 E1 F6000 ; Un-retract
G1 X-49.904 Y19.3832 E0.06634 F4800 ; Glyph: 0
G1 X-47.904 Y19.3832 E0.06634 F4800 ; Glyph: 0
G1 X-47.904 Y21.3832 E0.06634 F4800 ; Glyph: 0
G1 X-49.904 Y21.3832 E0.06634 F4800 ; Glyph: 0
G1 X-51.904 Y21.3832 E0.06634 F4800 ; Glyph: 0
G1 X-51.904 Y19.3832 E0.06634 F4800 ; Glyph: 0
G1 E-1 F6000 ; Retract
G1 Z0.6 F60000 ; Z hop
G0 X-51.904 Y22.3832 F60000 ; Move
G1 Z0.4 F60000 ; Z hop return
G1 E1 F6000 ; Un-retract
G1 X-49.904 Y22.3832 E0.06634 F4800 ; Glyph: 1
G1 X-47.904 Y22.3832 E0.06634 F4800 ; Glyph: 1
G1 E-1 F6000 ; Retract
G1 Z0.6 F60000 ; Z hop
G0 X-51.904 Y25.3832 F60000 ; Move
G1 Z0.4 F60000 ; Z hop return
G1 E1 F6000 ; Un-retract
G1 X-49.904 Y25.3832 E0.06634 F4800 ; Glyph: 4
G1 X-47.904 Y25.3832 E0.06634 F4800 ; Glyph: 4
G0 X-49.904 Y25.3832 F60000 ; Move
G1 X-49.904 Y23.3832 E0.06634 F4800 ; Glyph: 4
G1 X-51.904 Y23.3832 E0.06634 F4800 ; Glyph: 4
G1 E-1 F6000 ; Retract
G1 Z0.6 F60000 ; Z hop
G0 X-44.7012 Y15.3832 F60000 ; Move
G1 Z0.4 F60000 ; Z hop return
G1 E1 F6000 ; Un-retract
G1 X-42.7012 Y15.3832 E0.06634 F4800 ; Glyph: 0
G1 X-40.7012 Y15.3832 E0.06634 F4800 ; Glyph: 0
G1 X-40.7012 Y17.3832 E0.06634 F4800 ; Glyph: 0
G1 X-42.7012 Y17.3832 E0.06634 F4800 ; Glyph: 0
G1 X-44.7012 Y17.3832 E0.06634 F4800 ; Glyph: 0
G1 X-44.7012 Y15.3832 E0.06634 F4800 ; Glyph: 0
G1 E-1 F6000 ; Retract
G1 Z0.6 F60000 ; Z hop
G0 X-40.7012 Y18.3832 F60000 ; Move
G1 Z0.4 F60000 ; Z hop return
G1 E1 F6000 ; Un-retract
G1 X-41.4512 Y18.3832 E0.02488 F4800 ; Glyph: .
G1 E-1 F6000 ; Retract
G1 Z0.6 F60000 ; Z hop
G0 X-44.7012 Y19.3832 F60000 ; Move
G1 Z0.4 F60000 ; Z hop return
G1 E1 F6000 ; Un-retract
G1 X-42.7012 Y19.3832 E0.06634 F4800 ; Glyph: 0
G1 X-40.7012 Y19.3832 E0.06634 F4800 ; Glyph: 0
G1 X-40.7012 Y21.3832 E0.06634 F4800 ; Glyph: 0
G1 X-42.7012 Y21.3832 E0.06634 F4800 ; Glyph: 0
G1 X-44.7012 Y21.3832 E0.06634 F4800 ; Glyph: 0
G1 X-44.7012 Y19.3832 E0.06634 F4800 ; Glyph: 0
G1 E-1 F6000 ; Retract
G1 Z0.6 F60000 ; Z hop
G0 X-44.7012 Y22.3832 F60000 ; Move
G1 Z0.4 F60000 ; Z hop return
G1 E1 F6000 ; Un-retract
G1 X-42.7012 Y22.3832 E0.06634 F4800 ; Glyph: 1
G1 X-40.7012 Y22.3832 E0.06634 F4800 ; Glyph: 1
G1 E-1 F6000 ; Retract
G1 Z0.6 F60000 ; Z hop
G0 X-44.7012 Y25.3832 F60000 ; Move
G1 Z0.4 F60000 ; Z hop return
G1 E1 F6000 ; Un-retract
G1 X-44.7012 Y23.3832 E0.06634 F4800 ; Glyph: 6
G1 X-42.7012 Y23.3832 E0.06634 F4800 ; Glyph: 6
G1 X-40.7012 Y23.3832 E0.06634 F4800 ; Glyph: 6
G1 X-40.7012 Y25.3832 E0.06634 F4800 ; Glyph: 6
G1 X-42.7012 Y25.3832 E0.06634 F4800 ; Glyph: 6
G1 X-42.7012 Y23.3832 E0.06634 F4800 ; Glyph: 6
G1 E-1 F6000 ; Retract
G1 Z0.6 F60000 ; Z hop
G0 X-37.4984 Y15.3832 F60000 ; Move
G1 Z0.4 F60000 ; Z hop return
G1 E1 F6000 ; Un-retract
G1 X-35.4984 Y15.3832 E0.06634 F4800 ; Glyph: 0
G1 X-33.4984 Y15.3832 E0.06634 F4800 ; Glyph: 0
G1 X-33.4984 Y17.3832 E0.06634 F4800 ; Glyph: 0
G1 X-35.4984 Y17.3832 E0.06634 F4800 ; Glyph: 0
G1 X-37.4984 Y17.3832 E0.06634 F4800 ; Glyph: 0
G1 X-37.4984 Y15.3832 E0.06634 F4800 ; Glyph: 0
G1 E-1 F6000 ; Retract
G1 Z0.6 F60000 ; Z hop
G0 X-33.4984 Y18.3832 F60000 ; Move
G1 Z0.4 F60000 ; Z hop return
G1 E1 F6000 ; Un-retract
G1 X-34.2484 Y18.3832 E0.02488 F4800 ; Glyph: .
G1 E-1 F6000 ; Retract
G1 Z0.6 F60000 ; Z hop
G0 X-37.4984 Y19.3832 F60000 ; Move
G1 Z0.4 F60000 ; Z hop return
G1 E1 F6000 ; Un-retract
G1 X-35.4984 Y19.3832 E0.06634 F4800 ; Glyph: 0
G1 X-33.4984 Y19.3832 E0.06634 F4800 ; Glyph: 0
G1 X-33.4984 Y21.3832 E0.06634 F4800 ; Glyph: 0
G1 X-35.4984 Y21.3832 E0.06634 F4800 ; Glyph: 0
G1 X-37.4984 Y21.3832 E0.06634 F4800 ; Glyph: 0
G1 X-37.4984 Y19.3832 E0.06634 F4800 ; Glyph: 0
G1 E-1 F6000 ; Retract
G1 Z0.6 F60000 ; Z hop
G0 X-37.4984 Y22.3832 F60000 ; Move
G1 Z0.4 F60000 ; Z hop return
G1 E1 F6000 ; Un-retract
G1 X-35.4984 Y22.3832 E0.06634 F4800 ; Glyph: 1
G1 X-33.4984 Y22.3832 E0.06634 F4800 ; Glyph: 1
G1 E-1 F6000 ; Retract
G1 Z0.6 F60000 ; Z hop
G0 X-37.4984 Y23.3832 F60000 ; Move
G1 Z0.4 F60000 ; Z hop return
G1 E1 F6000 ; Un-retract
G1 X-35.4984 Y23.3832 E0.06634 F4800 ; Glyph: 8
G1 X-33.4984 Y23.3832 E0.06634 F4800 ; Glyph: 8
G1 X-33.4984 Y25.3832 E0.06634 F4800 ; Glyph: 8
G1 X-35.4984 Y25.3832 E0.06634 F4800 ; Glyph: 8
G1 X-37.4984 Y25.3832 E0.06634 F4800 ; Glyph: 8
G1 X-37.4984 Y23.3832 E0.06634 F4800 ; Glyph: 8
G0 X-35.4984 Y23.3832 F60000 ; Move
G1 X-35.4984 Y25.3832 E0.06634 F4800 ; Glyph: 8
G1 E-1 F6000 ; Retract
G1 Z0.6 F60000 ; Z hop
G0 X-30.2956 Y15.3832 F60000 ; Move
G1 Z0.4 F60000 ; Z hop return
G1 E1 F6000 ; Un-retract
G1 X-28.2956 Y15.3832 E0.06634 F4800 ; Glyph: 0
G1 X-26.2956 Y15.3832 E0.06634 F4800 ; Glyph: 0
G1 X-26.2956 Y17.3832 E0.06634 F4800 ; Glyph: 0
G1 X-28.2956 Y17.3832 E0.06634 F4800 ; Glyph: 0
G1 X-30.2956 Y17.3832 E0.06634 F4800 ; Glyph: 0
G1 X-30.2956 Y15.3832 E0.06634 F4800 ; Glyph: 0
G1 E-1 F6000 ; Retract
G1 Z0.6 F60000 ; Z hop
G0 X-26.2956 Y18.3832 F60000 ; Move
G1 Z0.4 F60000 ; Z hop return
G1 E1 F6000 ; Un-retract
G1 X-27.0456 Y18.3832 E0.02488 F4800 ; Glyph: .
G1 E-1 F6000 ; Retract
G1 Z0.6 F60000 ; Z hop
G0 X-30.2956 Y19.3832 F60000 ; Move
G1 Z0.4 F60000 ; Z hop return
G1 E1 F6000 ; Un-retract
G1 X-28.2956 Y19.3832 E0.06634 F4800 ; Glyph: 0
G1 X-26.2956 Y19.3832 E0.06634 F4800 ; Glyph: 0
G1 X-26.2956 Y21.3832 E0.06634 F4800 ; Glyph: 0
G1 X-28.2956 Y21.3832 E0.06634 F4800 ; Glyph: 0
G1 X-30.2956 Y21.3832 E0.06634 F4800 ; Glyph: 0
G1 X-30.2956 Y19.3832 E0.06634 F4800 ; Glyph: 0
G1 E-1 F6000 ; Retract
G1 Z0.6 F60000 ; Z hop
G0 X-30.2956 Y22.3832 F60000 ; Move
G1 Z0.4 F60000 ; Z hop return
G1 E1 F6000 ; Un-retract
G1 X-30.2956 Y24.3832 E0.06634 F4800 ; Glyph: 2
G1 X-28.2956 Y24.3832 E0.06634 F4800 ; Glyph: 2
G1 X-28.2956 Y22.3832 E0.06634 F4800 ; Glyph: 2
G1 X-26.2956 Y22.3832 E0.06634 F4800 ; Glyph: 2
G1 X-26.2956 Y24.3832 E0.06634 F4800 ; Glyph: 2
G1 E-1 F6000 ; Retract
G1 Z0.6 F60000 ; Z hop
G0 X-23.0928 Y15.3832 F60000 ; Move
G1 Z0.4 F60000 ; Z hop return
G1 E1 F6000 ; Un-retract
G1 X-21.0928 Y15.3832 E0.06634 F4800 ; Glyph: 0
G1 X-19.0928 Y15.3832 E0.06634 F4800 ; Glyph: 0
G1 X-19.0928 Y17.3832 E0.06634 F4800 ; Glyph: 0
G1 X-21.0928 Y17.3832 E0.06634 F4800 ; Glyph: 0
G1 X-23.0928 Y17.3832 E0.06634 F4800 ; Glyph: 0
G1 X-23.0928 Y15.3832 E0.06634 F4800 ; Glyph: 0
G1 E-1 F6000 ; Retract
G1 Z0.6 F60000 ; Z hop
G0 X-19.0928 Y18.3832 F60000 ; Move
G1 Z0.4 F60000 ; Z hop return
G1 E1 F6000 ; Un-retract
G1 X-19.8428 Y18.3832 E0.02488 F4800 ; Glyph: .
G1 E-1 F6000 ; Retract
G1 Z0.6 F60000 ; Z hop
G0 X-23.0928 Y19.3832 F60000 ; Move
G1 Z0.4 F60000 ; Z hop return
G1 E1 F6000 ; Un-retract
G1 X-21.0928 Y19.3832 E0.06634 F4800 ; Glyph: 0
G1 X-19.0928 Y19.3832 E0.06634 F4800 ; Glyph: 0
G1 X-19.0928 Y21.3832 E0.06634 F4800 ; Glyph: 0
G1 X-21.0928 Y21.3832 E0.06634 F4800 ; Glyph: 0
G1 X-23.0928 Y21.3832 E0.06634 F4800 ; Glyph: 0
G1 X-23.0928 Y19.3832 E0.06634 F4800 ; Glyph: 0
G1 E-1 F6000 ; Retract
G1 Z0.6 F60000 ; Z hop
G0 X-23.0928 Y22.3832 F60000 ; Move
G1 Z0.4 F60000 ; Z hop return
G1 E1 F6000 ; Un-retract
G1 X-23.0928 Y24.3832 E0.06634 F4800 ; Glyph: 2
G1 X-21.0928 Y24.3832 E0.06634 F4800 ; Glyph: 2
G1 X-21.0928 Y22.3832 E0.06634 F4800 ; Glyph: 2
G1 X-19.0928 Y22.3832 E0.06634 F4800 ; Glyph: 2
G1 X-19.0928 Y24.3832 E0.06634 F4800 ; Glyph: 2
G1 E-1 F6000 ; Retract
G1 Z0.6 F60000 ; Z hop
G0 X-23.0928 Y25.3832 F60000 ; Move
G1 Z0.4 F60000 ; Z hop return
G1 E1 F6000 ; Un-retract
G1 X-23.0928 Y27.3832 E0.06634 F4800 ; Glyph: 2
G1 X-21.0928 Y27.3832 E0.06634 F4800 ; Glyph: 2
G1 X-21.0928 Y25.3832 E0.06634 F4800 ; Glyph: 2
G1 X-19.0928 Y25.3832 E0.06634 F4800 ; Glyph: 2
G1 X-19.0928 Y27.3832 E0.06634 F4800 ; Glyph: 2
G1 E-1 F6000 ; Retract
G1 Z0.6 F60000 ; Z hop
G0 X-15.89 Y15.3832 F60000 ; Move
G1 Z0.4 F60000 ; Z hop return
G1 E1 F6000 ; Un-retract
G1 X-13.89 Y15.3832 E0.06634 F4800 ; Glyph: 0
G1 X-11.89 Y15.3832 E0.06634 F4800 ; Glyph: 0
G1 X-11.89 Y17.3832 E0.06634 F4800 ; Glyph: 0
G1 X-13.89 Y17.3832 E0.06634 F4800 ; Glyph: 0
G1 X-15.89 Y17.3832 E0.06634 F4800 ; Glyph: 0
G1 X-15.89 Y15.3832 E0.06634 F4800 ; Glyph: 0
G1 E-1 F6000 ; Retract
G1 Z0.6 F60000 ; Z hop
G0 X-11.89 Y18.3832 F60000 ; Move
G1 Z0.4 F60000 ; Z hop return
G1 E1 F6000 ; Un-retract
G1 X-12.64 Y18.3832 E0.02488 F4800 ; Glyph: .
G1 E-1 F6000 ; Retract
G1 Z0.6 F60000 ; Z hop
G0 X-15.89 Y19.3832 F60000 ; Move
G1 Z0.4 F60000 ; Z hop return
G1 E1 F6000 ; Un-retract
G1 X-13.89 Y19.3832 E0.06634 F4800 ; Glyph: 0
G1 X-11.89 Y19.3832 E0.06634 F4800 ; Glyph: 0
G1 X-11.89 Y21.3832 E0.06634 F4800 ; Glyph: 0
G1 X-13.89 Y21.3832 E0.06634 F4800 ; Glyph: 0
G1 X-15.89 Y21.3832 E0.06634 F4800 ; Glyph: 0
G1 X-15.89 Y19.3832 E0.06634 F4800 ; Glyph: 0
G1 E-1 F6000 ; Retract
G1 Z0.6 F60000 ; Z hop
G0 X-15.89 Y22.3832 F60000 ; Move
G1 Z0.4 F60000 ; Z hop return
G1 E1 F6000 ; Un-retract
G1 X-15.89 Y24.3832 E0.06634 F4800 ; Glyph: 2
G1 X-13.89 Y24.3832 E0.06634 F4800 ; Glyph: 2
G1 X-13.89 Y22.3832 E0.06634 F4800 ; Glyph: 2
G1 X-11.89 Y22.3832 E0.06634 F4800 ; Glyph: 2
G1 X-11.89 Y24.3832 E0.06634 F4800 ; Glyph: 2
G1 E-1 F6000 ; Retract
G1 Z0.6 F60000 ; Z hop
G0 X-15.89 Y27.3832 F60000 ; Move
G1 Z0.4 F60000 ; Z hop return
G1 E1 F6000 ; Un-retract
G1 X-13.89 Y27.3832 E0.06634 F4800 ; Glyph: 4
G1 X-11.89 Y27.3832 E0.06634 F4800 ; Glyph: 4
G0 X-13.89 Y27.3832 F60000 ; Move
G1 X-13.89 Y25.3832 E0.06634 F4800 ; Glyph: 4
G1 X-15.89 Y25.3832 E0.06634 F4800 ; Glyph: 4
G1 E-1 F6000 ; Retract
G1 Z0.6 F60000 ; Z hop
G0 X-8.6872 Y15.3832 F60000 ; Move
G1 Z0.4 F60000 ; Z hop return
G1 E1 F6000 ; Un-retract
G1 X-6.6872 Y15.3832 E0.06634 F4800 ; Glyph: 0
G1 X-4.6872 Y15.3832 E0.06634 F4800 ; Glyph: 0
G1 X-4.6872 Y17.3832 E0.06634 F4800 ; Glyph: 0
G1 X-6.6872 Y17.3832 E0.06634 F4800 ; Glyph: 0
G1 X-8.6872 Y17.3832 E0.06634 F4800 ; Glyph: 0
G1 X-8.6872 Y15.3832 E0.06634 F4800 ; Glyph: 0
G1 E-1 F6000 ; Retract
G1 Z0.6 F60000 ; Z hop
G0 X-4.6872 Y18.3832 F60000 ; Move
G1 Z0.4 F60000 ; Z hop return
G1 E1 F6000 ; Un-retract
G1 X-5.4372 Y18.3832 E0.02488 F4800 ; Glyph: .
G1 E-1 F6000 ; Retract
G1 Z0.6 F60000 ; Z hop
G0 X-8.6872 Y19.3832 F60000 ; Move
G1 Z0.4 F60000 ; Z hop return
G1 E1 F6000 ; Un-retract
G1 X-6.6872 Y19.3832 E0.06634 F4800 ; Glyph: 0
G1 X-4.6872 Y19.3832 E0.06634 F4800 ; Glyph: 0
G1 X-4.6872 Y21.3832 E0.06634 F4800 ; Glyph: 0
G1 X-6.6872 Y21.3832 E0.06634 F4800 ; Glyph: 0
G1 X-8.6872 Y21.3832 E0.06634 F4800 ; Glyph: 0
G1 X-8.6872 Y19.3832 E0.06634 F4800 ; Glyph: 0
G1 E-1 F6000 ; Retract
G1 Z0.6 F60000 ; Z hop
G0 X-8.6872 Y22.3832 F60000 ; Move
G1 Z0.4 F60000 ; Z hop return
G1 E1 F6000 ; Un-retract
G1 X-8.6872 Y24.3832 E0.06634 F4800 ; Glyph: 2
G1 X-6.6872 Y24.3832 E0.06634 F4800 ; Glyph: 2
G1 X-6.6872 Y22.3832 E0.06634 F4800 ; Glyph: 2
G1 X-4.6872 Y22.3832 E0.06634 F4800 ; Glyph: 2
G1 X-4.6872 Y24.3832 E0.06634 F4800 ; Glyph: 2
G1 E-1 F6000 ; Retract
G1 Z0.6 F60000 ; Z hop
G0 X-8.6872 Y27.3832 F60000 ; Move
G1 Z0.4 F60000 ; Z hop return
G1 E1 F6000 ; Un-retract
G1 X-8.6872 Y25.3832 E0.06634 F4800 ; Glyph: 6
G1 X-6.6872 Y25.3832 E0.06634 F4800 ; Glyph: 6
G1 X-4.6872 Y25.3832 E0.06634 F4800 ; Glyph: 6
G1 X-4.6872 Y27.3832 E0.06634 F4800 ; Glyph: 6
G1 X-6.6872 Y27.3832 E0.06634 F4800 ; Glyph: 6
G1 X-6.6872 Y25.3832 E0.06634 F4800 ; Glyph: 6
G1 E-1 F6000 ; Retract
G1 Z0.6 F60000 ; Z hop
G0 X-1.4844 Y15.3832 F60000 ; Move
G1 Z0.4 F60000 ; Z hop return
G1 E1 F6000 ; Un-retract
G1 X0.5156 Y15.3832 E0.06634 F4800 ; Glyph: 0
G1 X2.5156 Y15.3832 E0.06634 F4800 ; Glyph: 0
G1 X2.5156 Y17.3832 E0.06634 F4800 ; Glyph: 0
G1 X0.5156 Y17.3832 E0.06634 F4800 ; Glyph: 0
G1 X-1.4844 Y17.3832 E0.06634 F4800 ; Glyph: 0
G1 X-1.4844 Y15.3832 E0.06634 F4800 ; Glyph: 0
G1 E-1 F6000 ; Retract
G1 Z0.6 F60000 ; Z hop
G0 X2.5156 Y18.3832 F60000 ; Move
G1 Z0.4 F60000 ; Z hop return
G1 E1 F6000 ; Un-retract
G1 X1.7656 Y18.3832 E0.02488 F4800 ; Glyph: .
G1 E-1 F6000 ; Retract
G1 Z0.6 F60000 ; Z hop
G0 X-1.4844 Y19.3832 F60000 ; Move
G1 Z0.4 F60000 ; Z hop return
G1 E1 F6000 ; Un-retract
G1 X0.5156 Y19.3832 E0.06634 F4800 ; Glyph: 0
G1 X2.5156 Y19.3832 E0.06634 F4800 ; Glyph: 0
G1 X2.5156 Y21.3832 E0.06634 F4800 ; Glyph: 0
G1 X0.5156 Y21.3832 E0.06634 F4800 ; Glyph: 0
G1 X-1.4844 Y21.3832 E0.06634 F4800 ; Glyph: 0
G1 X-1.4844 Y19.3832 E0.06634 F4800 ; Glyph: 0
G1 E-1 F6000 ; Retract
G1 Z0.6 F60000 ; Z hop
G0 X-1.4844 Y22.3832 F60000 ; Move
G1 Z0.4 F60000 ; Z hop return
G1 E1 F6000 ; Un-retract
G1 X-1.4844 Y24.3832 E0.06634 F4800 ; Glyph: 2
G1 X0.5156 Y24.3832 E0.06634 F4800 ; Glyph: 2
G1 X0.5156 Y22.3832 E0.06634 F4800 ; Glyph: 2
G1 X2.5156 Y22.3832 E0.06634 F4800 ; Glyph: 2
G1 X2.5156 Y24.3832 E0.06634 F4800 ; Glyph: 2
G1 E-1 F6000 ; Retract
G1 Z0.6 F60000 ; Z hop
G0 X-1.4844 Y25.3832 F60000 ; Move
G1 Z0.4 F60000 ; Z hop return
G1 E1 F6000 ; Un-retract
G1 X0.5156 Y25.3832 E0.06634 F4800 ; Glyph: 8
G1 X2.5156 Y25.3832 E0.06634 F4800 ; Glyph: 8
G1 X2.5156 Y27.3832 E0.06634 F4800 ; Glyph: 8
G1 X0.5156 Y27.3832 E0.06634 F4800 ; Glyph: 8
G1 X-1.4844 Y27.3832 E0.06634 F4800 ; Glyph: 8
G1 X-1.4844 Y25.3832 E0.06634 F4800 ; Glyph: 8
G0 X0.5156 Y25.3832 F60000 ; Move
G1 X0.5156 Y27.3832 E0.06634 F4800 ; Glyph: 8
G1 E-1 F6000 ; Retract
G1 Z0.6 F60000 ; Z hop
G0 X5.7183 Y15.3832 F60000 ; Move
G1 Z0.4 F60000 ; Z hop return
G1 E1 F6000 ; Un-retract
G1 X7.7183 Y15.3832 E0.06634 F4800 ; Glyph: 0
G1 X9.7183 Y15.3832 E0.06634 F4800 ; Glyph: 0
G1 X9.7183 Y17.3832 E0.06634 F4800 ; Glyph: 0
G1 X7.7183 Y17.3832 E0.06634 F4800 ; Glyph: 0
G1 X5.7183 Y17.3832 E0.06634 F4800 ; Glyph: 0
G1 X5.7183 Y15.3832 E0.06634 F4800 ; Glyph: 0
G1 E-1 F6000 ; Retract
G1 Z0.6 F60000 ; Z hop
G0 X9.7183 Y18.3832 F60000 ; Move
G1 Z0.4 F60000 ; Z hop return
G1 E1 F6000 ; Un-retract
G1 X8.9683 Y18.3832 E0.02488 F4800 ; Glyph: .
G1 E-1 F6000 ; Retract
G1 Z0.6 F60000 ; Z hop
G0 X5.7183 Y19.3832 F60000 ; Move
G1 Z0.4 F60000 ; Z hop return
G1 E1 F6000 ; Un-retract
G1 X7.7183 Y19.3832 E0.06634 F4800 ; Glyph: 0
G1 X9.7183 Y19.3832 E0.06634 F4800 ; Glyph: 0
G1 X9.7183 Y21.3832 E0.06634 F4800 ; Glyph: 0
G1 X7.7183 Y21.3832 E0.06634 F4800 ; Glyph: 0
G1 X5.7183 Y21.3832 E0.06634 F4800 ; Glyph: 0
G1 X5.7183 Y19.3832 E0.06634 F4800 ; Glyph: 0
G1 E-1 F6000 ; Retract
G1 Z0.6 F60000 ; Z hop
G0 X5.7183 Y22.3832 F60000 ; Move
G1 Z0.4 F60000 ; Z hop return
G1 E1 F6000 ; Un-retract
G1 X5.7183 Y24.3832 E0.06634 F4800 ; Glyph: 3
G1 X7.7183 Y24.3832 E0.06634 F4800 ; Glyph: 3
G1 X7.7183 Y22.3832 E0.06634 F4800 ; Glyph: 3
G0 X7.7183 Y24.3832 F60000 ; Move
G1 X9.7183 Y24.3832 E0.06634 F4800 ; Glyph: 3
G1 X9.7183 Y22.3832 E0.06634 F4800 ; Glyph: 3
G1 E-1 F6000 ; Retract
G1 Z0.6 F60000 ; Z hop
G0 X12.9211 Y15.3832 F60000 ; Move
G1 Z0.4 F60000 ; Z hop return
G1 E1 F6000 ; Un-retract
G1 X14.9211 Y15.3832 E0.06634 F4800 ; Glyph: 0
G1 X16.9211 Y15.3832 E0.06634 F4800 ; Glyph: 0
G1 X16.9211 Y17.3832 E0.06634 F4800 ; Glyph: 0
G1 X14.9211 Y17.3832 E0.06634 F4800 ; Glyph: 0
G1 X12.9211 Y17.3832 E0.06634 F4800 ; Glyph: 0
G1 X12.9211 Y15.3832 E0.06634 F4800 ; Glyph: 0
G1 E-1 F6000 ; Retract
G1 Z0.6 F60000 ; Z hop
G0 X16.9211 Y18.3832 F60000 ; Move
G1 Z0.4 F60000 ; Z hop return
G1 E1 F6000 ; Un-retract
G1 X16.1711 Y18.3832 E0.02488 F4800 ; Glyph: .
G1 E-1 F6000 ; Retract
G1 Z0.6 F60000 ; Z hop
G0 X12.9211 Y19.3832 F60000 ; Move
G1 Z0.4 F60000 ; Z hop return
G1 E1 F6000 ; Un-retract
G1 X14.9211 Y19.3832 E0.06634 F4800 ; Glyph: 0
G1 X16.9211 Y19.3832 E0.06634 F4800 ; Glyph: 0
G1 X16.9211 Y21.3832 E0.06634 F4800 ; Glyph: 0
G1 X14.9211 Y21.3832 E0.06634 F4800 ; Glyph: 0
G1 X12.9211 Y21.3832 E0.06634 F4800 ; Glyph: 0
G1 X12.9211 Y19.3832 E0.06634 F4800 ; Glyph: 0
G1 E-1 F6000 ; Retract
G1 Z0.6 F60000 ; Z hop
G0 X12.9211 Y22.3832 F60000 ; Move
G1 Z0.4 F60000 ; Z hop return
G1 E1 F6000 ; Un-retract
G1 X12.9211 Y24.3832 E0.06634 F4800 ; Glyph: 3
G1 X14.9211 Y24.3832 E0.06634 F4800 ; Glyph: 3
G1 X14.9211 Y22.3832 E0.06634 F4800 ; Glyph: 3
G0 X14.9211 Y24.3832 F60000 ; Move
G1 X16.9211 Y24.3832 E0.06634 F4800 ; Glyph: 3
G1 X16.9211 Y22.3832 E0.06634 F4800 ; Glyph: 3
G1 E-1 F6000 ; Retract
G1 Z0.6 F60000 ; Z hop
G0 X12.9211 Y25.3832 F60000 ; Move
G1 Z0.4 F60000 ; Z hop return
G1 E1 F6000 ; Un-retract
G1 X12.9211 Y27.3832 E0.06634 F4800 ; Glyph: 2
G1 X14.9211 Y27.3832 E0.06634 F4800 ; Glyph: 2
G1 X14.9211 Y25.3832 E0.06634 F4800 ; Glyph: 2
G1 X16.9211 Y25.3832 E0.06634 F4800 ; Glyph: 2
G1 X16.9211 Y27.3832 E0.06634 F4800 ; Glyph: 2
G1 E-1 F6000 ; Retract
G1 Z0.6 F60000 ; Z hop
G0 X20.1239 Y15.3832 F60000 ; Move
G1 Z0.4 F60000 ; Z hop return
G1 E1 F6000 ; Un-retract
G1 X22.1239 Y15.3832 E0.06634 F4800 ; Glyph: 0
G1 X24.1239 Y15.3832 E0.06634 F4800 ; Glyph: 0
G1 X24.1239 Y17.3832 E0.06634 F4800 ; Glyph: 0
G1 X22.1239 Y17.3832 E0.06634 F4800 ; Glyph: 0
G1 X20.1239 Y17.3832 E0.06634 F4800 ; Glyph: 0
G1 X20.1239 Y15.3832 E0.06634 F4800 ; Glyph: 0
G1 E-1 F6000 ; Retract
G1 Z0.6 F60000 ; Z hop
G0 X24.1239 Y18.3832 F60000 ; Move
G1 Z0.4 F60000 ; Z hop return
G1 E1 F6000 ; Un-retract
G1 X23.3739 Y18.3832 E0.02488 F4800 ; Glyph: .
G1 E-1 F6000 ; Retract
G1 Z0.6 F60000 ; Z hop
G0 X20.1239 Y19.3832 F60000 ; Move
G1 Z0.4 F60000 ; Z hop return
G1 E1 F6000 ; Un-retract
G1 X22.1239 Y19.3832 E0.06634 F4800 ; Glyph: 0
G1 X24.1239 Y19.3832 E0.06634 F4800 ; Glyph: 0
G1 X24.1239 Y21.3832 E0.06634 F4800 ; Glyph: 0
G1 X22.1239 Y21.3832 E0.06634 F4800 ; Glyph: 0
G1 X20.1239 Y21.3832 E0.06634 F4800 ; Glyph: 0
G1 X20.1239 Y19.3832 E0.06634 F4800 ; Glyph: 0
G1 E-1 F6000 ; Retract
G1 Z0.6 F60000 ; Z hop
G0 X20.1239 Y22.3832 F60000 ; Move
G1 Z0.4 F60000 ; Z hop return
G1 E1 F6000 ; Un-retract
G1 X20.1239 Y24.3832 E0.06634 F4800 ; Glyph: 3
G1 X22.1239 Y24.3832 E0.06634 F4800 ; Glyph: 3
G1 X22.1239 Y22.3832 E0.06634 F4800 ; Glyph: 3
G0 X22.1239 Y24.3832 F60000 ; Move
G1 X24.1239 Y24.3832 E0.06634 F4800 ; Glyph: 3
G1 X24.1239 Y22.3832 E0.06634 F4800 ; Glyph: 3
G1 E-1 F6000 ; Retract
G1 Z0.6 F60000 ; Z hop
G0 X20.1239 Y27.3832 F60000 ; Move
G1 Z0.4 F60000 ; Z hop return
G1 E1 F6000 ; Un-retract
G1 X22.1239 Y27.3832 E0.06634 F4800 ; Glyph: 4
G1 X24.1239 Y27.3832 E0.06634 F4800 ; Glyph: 4
G0 X22.1239 Y27.3832 F60000 ; Move
G1 X22.1239 Y25.3832 E0.06634 F4800 ; Glyph: 4
G1 X20.1239 Y25.3832 E0.06634 F4800 ; Glyph: 4
G1 E-1 F6000 ; Retract
G1 Z0.6 F60000 ; Z hop
G0 X27.3267 Y15.3832 F60000 ; Move
G1 Z0.4 F60000 ; Z hop return
G1 E1 F6000 ; Un-retract
G1 X29.3267 Y15.3832 E0.06634 F4800 ; Glyph: 0
G1 X31.3267 Y15.3832 E0.06634 F4800 ; Glyph: 0
G1 X31.3267 Y17.3832 E0.06634 F4800 ; Glyph: 0
G1 X29.3267 Y17.3832 E0.06634 F4800 ; Glyph: 0
G1 X27.3267 Y17.3832 E0.06634 F4800 ; Glyph: 0
G1 X27.3267 Y15.3832 E0.06634 F4800 ; Glyph: 0
G1 E-1 F6000 ; Retract
G1 Z0.6 F60000 ; Z hop
G0 X31.3267 Y18.3832 F60000 ; Move
G1 Z0.4 F60000 ; Z hop return
G1 E1 F6000 ; Un-retract
G1 X30.5767 Y18.3832 E0.02488 F4800 ; Glyph: .
G1 E-1 F6000 ; Retract
G1 Z0.6 F60000 ; Z hop
G0 X27.3267 Y19.3832 F60000 ; Move
G1 Z0.4 F60000 ; Z hop return
G1 E1 F6000 ; Un-retract
G1 X29.3267 Y19.3832 E0.06634 F4800 ; Glyph: 0
G1 X31.3267 Y19.3832 E0.06634 F4800 ; Glyph: 0
G1 X31.3267 Y21.3832 E0.06634 F4800 ; Glyph: 0
G1 X29.3267 Y21.3832 E0.06634 F4800 ; Glyph: 0
G1 X27.3267 Y21.3832 E0.06634 F4800 ; Glyph: 0
G1 X27.3267 Y19.3832 E0.06634 F4800 ; Glyph: 0
G1 E-1 F6000 ; Retract
G1 Z0.6 F60000 ; Z hop
G0 X27.3267 Y22.3832 F60000 ; Move
G1 Z0.4 F60000 ; Z hop return
G1 E1 F6000 ; Un-retract
G1 X27.3267 Y24.3832 E0.06634 F4800 ; Glyph: 3
G1 X29.3267 Y24.3832 E0.06634 F4800 ; Glyph: 3
G1 X29.3267 Y22.3832 E0.06634 F4800 ; Glyph: 3
G0 X29.3267 Y24.3832 F60000 ; Move
G1 X31.3267 Y24.3832 E0.06634 F4800 ; Glyph: 3
G1 X31.3267 Y22.3832 E0.06634 F4800 ; Glyph: 3
G1 E-1 F6000 ; Retract
G1 Z0.6 F60000 ; Z hop
G0 X27.3267 Y27.3832 F60000 ; Move
G1 Z0.4 F60000 ; Z hop return
G1 E1 F6000 ; Un-retract
G1 X27.3267 Y25.3832 E0.06634 F4800 ; Glyph: 6
G1 X29.3267 Y25.3832 E0.06634 F4800 ; Glyph: 6
G1 X31.3267 Y25.3832 E0.06634 F4800 ; Glyph: 6
G1 X31.3267 Y27.3832 E0.06634 F4800 ; Glyph: 6
G1 X29.3267 Y27.3832 E0.06634 F4800 ; Glyph: 6
G1 X29.3267 Y25.3832 E0.06634 F4800 ; Glyph: 6
G1 E-1 F6000 ; Retract
G1 Z0.6 F60000 ; Z hop
G0 X34.5295 Y15.3832 F60000 ; Move
G1 Z0.4 F60000 ; Z hop return
G1 E1 F6000 ; Un-retract
G1 X36.5295 Y15.3832 E0.06634 F4800 ; Glyph: 0
G1 X38.5295 Y15.3832 E0.06634 F4800 ; Glyph: 0
G1 X38.5295 Y17.3832 E0.06634 F4800 ; Glyph: 0
G1 X36.5295 Y17.3832 E0.06634 F4800 ; Glyph: 0
G1 X34.5295 Y17.3832 E0.06634 F4800 ; Glyph: 0
G1 X34.5295 Y15.3832 E0.06634 F4800 ; Glyph: 0
G1 E-1 F6000 ; Retract
G1 Z0.6 F60000 ; Z hop
G0 X38.5295 Y18.3832 F60000 ; Move
G1 Z0.4 F60000 ; Z hop return
G1 E1 F6000 ; Un-retract
G1 X37.7795 Y18.3832 E0.02488 F4800 ; Glyph: .
G1 E-1 F6000 ; Retract
G1 Z0.6 F60000 ; Z hop
G0 X34.5295 Y19.3832 F60000 ; Move
G1 Z0.4 F60000 ; Z hop return
G1 E1 F6000 ; Un-retract
G1 X36.5295 Y19.3832 E0.06634 F4800 ; Glyph: 0
G1 X38.5295 Y19.3832 E0.06634 F4800 ; Glyph: 0
G1 X38.5295 Y21.3832 E0.06634 F4800 ; Glyph: 0
G1 X36.5295 Y21.3832 E0.06634 F4800 ; Glyph: 0
G1 X34.5295 Y21.3832 E0.06634 F4800 ; Glyph: 0
G1 X34.5295 Y19.3832 E0.06634 F4800 ; Glyph: 0
G1 E-1 F6000 ; Retract
G1 Z0.6 F60000 ; Z hop
G0 X34.5295 Y22.3832 F60000 ; Move
G1 Z0.4 F60000 ; Z hop return
G1 E1 F6000 ; Un-retract
G1 X34.5295 Y24.3832 E0.06634 F4800 ; Glyph: 3
G1 X36.5295 Y24.3832 E0.06634 F4800 ; Glyph: 3
G1 X36.5295 Y22.3832 E0.06634 F4800 ; Glyph: 3
G0 X36.5295 Y24.3832 F60000 ; Move
G1 X38.5295 Y24.3832 E0.06634 F4800 ; Glyph: 3
G1 X38.5295 Y22.3832 E0.06634 F4800 ; Glyph: 3
G1 E-1 F6000 ; Retract
G1 Z0.6 F60000 ; Z hop
G0 X34.5295 Y25.3832 F60000 ; Move
G1 Z0.4 F60000 ; Z hop return
G1 E1 F6000 ; Un-retract
G1 X36.5295 Y25.3832 E0.06634 F4800 ; Glyph: 8
G1 X38.5295 Y25.3832 E0.06634 F4800 ; Glyph: 8
G1 X38.5295 Y27.3832 E0.06634 F4800 ; Glyph: 8
G1 X36.5295 Y27.3832 E0.06634 F4800 ; Glyph: 8
G1 X34.5295 Y27.3832 E0.06634 F4800 ; Glyph: 8
G1 X34.5295 Y25.3832 E0.06634 F4800 ; Glyph: 8
G0 X36.5295 Y25.3832 F60000 ; Move
G1 X36.5295 Y27.3832 E0.06634 F4800 ; Glyph: 8
G1 E-1 F6000 ; Retract
G1 Z0.6 F60000 ; Z hop
G0 X41.7323 Y15.3832 F60000 ; Move
G1 Z0.4 F60000 ; Z hop return
G1 E1 F6000 ; Un-retract
G1 X43.7323 Y15.3832 E0.06634 F4800 ; Glyph: 0
G1 X45.7323 Y15.3832 E0.06634 F4800 ; Glyph: 0
G1 X45.7323 Y17.3832 E0.06634 F4800 ; Glyph: 0
G1 X43.7323 Y17.3832 E0.06634 F4800 ; Glyph: 0
G1 X41.7323 Y17.3832 E0.06634 F4800 ; Glyph: 0
G1 X41.7323 Y15.3832 E0.06634 F4800 ; Glyph: 0
G1 E-1 F6000 ; Retract
G1 Z0.6 F60000 ; Z hop
G0 X45.7323 Y18.3832 F60000 ; Move
G1 Z0.4 F60000 ; Z hop return
G1 E1 F6000 ; Un-retract
G1 X44.9823 Y18.3832 E0.02488 F4800 ; Glyph: .
G1 E-1 F6000 ; Retract
G1 Z0.6 F60000 ; Z hop
G0 X41.7323 Y19.3832 F60000 ; Move
G1 Z0.4 F60000 ; Z hop return
G1 E1 F6000 ; Un-retract
G1 X43.7323 Y19.3832 E0.06634 F4800 ; Glyph: 0
G1 X45.7323 Y19.3832 E0.06634 F4800 ; Glyph: 0
G1 X45.7323 Y21.3832 E0.06634 F4800 ; Glyph: 0
G1 X43.7323 Y21.3832 E0.06634 F4800 ; Glyph: 0
G1 X41.7323 Y21.3832 E0.06634 F4800 ; Glyph: 0
G1 X41.7323 Y19.3832 E0.06634 F4800 ; Glyph: 0
G1 E-1 F6000 ; Retract
G1 Z0.6 F60000 ; Z hop
G0 X41.7323 Y24.3832 F60000 ; Move
G1 Z0.4 F60000 ; Z hop return
G1 E1 F6000 ; Un-retract
G1 X43.7323 Y24.3832 E0.06634 F4800 ; Glyph: 4
G1 X45.7323 Y24.3832 E0.06634 F4800 ; Glyph: 4
G0 X43.7323 Y24.3832 F60000 ; Move
G1 X43.7323 Y22.3832 E0.06634 F4800 ; Glyph: 4
G1 X41.7323 Y22.3832 E0.06634 F4800 ; Glyph: 4
G1 E-1 F6000 ; Retract
G1 Z0.6 F60000 ; Z hop
G0 X-64.8853 Y-28.4932 F60000 ; Move to pattern start

G1 Z0.4 F60000 ; Z hop return
G1 E1 F6000 ; Un-retract
SET_PRESSURE_ADVANCE ADVANCE=0.01 ; Set pressure advance
M117 PA 0.01
G1 X-43.6721 Y-7.28 E0.99515 F24000 ; Print pattern wall
G1 X-64.8853 Y13.9332 E0.99515 F24000 ; Print pattern wall
G1 E-1 F6000 ; Retract
G1 Z0.6 F60000 ; Z hop
G0 X-64.3096 Y-28.4932 F60000 ; Move to start next pattern wall
G1 Z0.4 F60000 ; Z hop return
G1 E1 F6000 ; Un-retract
G1 X-43.0964 Y-7.28 E0.99515 F24000 ; Print pattern wall
G1 X-64.3096 Y13.9332 E0.99515 F24000 ; Print pattern wall
G1 E-1 F6000 ; Retract
G1 Z0.6 F60000 ; Z hop
G0 X-63.7339 Y-28.4932 F60000 ; Move to start next pattern wall
G1 Z0.4 F60000 ; Z hop return
G1 E1 F6000 ; Un-retract
G1 X-42.5207 Y-7.28 E0.99515 F24000 ; Print pattern wall
G1 X-63.7339 Y13.9332 E0.99515 F24000 ; Print pattern wall
G1 E-1 F6000 ; Retract
G1 Z0.6 F60000 ; Z hop
G0 X-61.2839 Y-28.4932 F60000 ; Move to next pattern
G1 Z0.4 F60000 ; Z hop return
G1 E1 F6000 ; Un-retract
SET_PRESSURE_ADVANCE ADVANCE=0.011 ; Set pressure advance
M117 PA 0.011
G1 X-40.0707 Y-7.28 E0.99515 F24000 ; Print pattern wall
G1 X-61.2839 Y13.9332 E0.99515 F24000 ; Print pattern wall
G1 E-1 F6000 ; Retract
G1 Z0.6 F60000 ; Z hop
G0 X-60.7082 Y-28.4932 F60000 ; Move to start next pattern wall
G1 Z0.4 F60000 ; Z hop return
G1 E1 F6000 ; Un-retract
G1 X-39.495 Y-7.28 E0.99515 F24000 ; Print pattern wall
G1 X-60.7082 Y13.9332 E0.99515 F24000 ; Print pattern wall
G1 E-1 F6000 ; Retract
G1 Z0.6 F60000 ; Z hop
G0 X-60.1325 Y-28.4932 F60000 ; Move to start next pattern wall
G1 Z0.4 F60000 ; Z hop return
G1 E1 F6000 ; Un-retract
G1 X-38.9193 Y-7.28 E0.99515 F24000 ; Print pattern wall
G1 X-60.1325 Y13.9332 E0.99515 F24000 ; Print pattern wall
G1 E-1 F6000 ; Retract
G1 Z0.6 F60000 ; Z hop
G0 X-57.6825 Y-28.4932 F60000 ; Move to next pattern
G1 Z0.4 F60000 ; Z hop return
G1 E1 F6000 ; Un-retract
SET_PRESSURE_ADVANCE ADVANCE=0.012 ; Set pressure advance
M117 PA 0.012
G1 X-36.4693 Y-7.28 E0.99515 F24000 ; Print pattern wall
G1 X-57.6825 Y13.9332 E0.99515 F24000 ; Print pattern wall
G1 E-1 F6000 ; Retract
G1 Z0.6 F60000 ; Z hop
G0 X-57.1068 Y-28.4932 F60000 ; Move to start next pattern wall
G1 Z0.4 F60000 ; Z hop return
G1 E1 F6000 ; Un-retract
G1 X-35.8936 Y-7.28 E0.99515 F24000 ; Print pattern wall
G1 X-57.1068 Y13.9332 E0.99515 F24000 ; Print pattern wall
G1 E-1 F6000 ; Retract
G1 Z0.6 F60000 ; Z hop
G0 X-56.5311 Y-28.4932 F60000 ; Move to start next pattern wall
G1 Z0.4 F60000 ; Z hop return
G1 E1 F6000 ; Un-retract
G1 X-35.3179 Y-7.28 E0.99515 F24000 ; Print pattern wall
G1 X-56.5311 Y13.9332 E0.99515 F24000 ; Print pattern wall
G1 E-1 F6000 ; Retract
G1 Z0.6 F60000 ; Z hop
G0 X-54.0811 Y-28.4932 F60000 ; Move to next pattern
G1 Z0.4 F60000 ; Z hop return
G1 E1 F6000 ; Un-retract
SET_PRESSURE_ADVANCE ADVANCE=0.013 ; Set pressure advance
M117 PA 0.013
G1 X-32.8679 Y-7.28 E0.99515 F24000 ; Print pattern wall
G1 X-54.0811 Y13.9332 E0.99515 F24000 ; Print pattern wall
G1 E-1 F6000 ; Retract
G1 Z0.6 F60000 ; Z hop
G0 X-53.5054 Y-28.4932 F60000 ; Move to start next pattern wall
G1 Z0.4 F60000 ; Z hop return
G1 E1 F6000 ; Un-retract
G1 X-32.2922 Y-7.28 E0.99515 F24000 ; Print pattern wall
G1 X-53.5054 Y13.9332 E0.99515 F24000 ; Print pattern wall
G1 E-1 F6000 ; Retract
G1 Z0.6 F60000 ; Z hop
G0 X-52.9297 Y-28.4932 F60000 ; Move to start next pattern wall
G1 Z0.4 F60000 ; Z hop return
G1 E1 F6000 ; Un-retract
G1 X-31.7165 Y-7.28 E0.99515 F24000 ; Print pattern wall
G1 X-52.9297 Y13.9332 E0.99515 F24000 ; Print pattern wall
G1 E-1 F6000 ; Retract
G1 Z0.6 F60000 ; Z hop
G0 X-50.4797 Y-28.4932 F60000 ; Move to next pattern
G1 Z0.4 F60000 ; Z hop return
G1 E1 F6000 ; Un-retract
SET_PRESSURE_ADVANCE ADVANCE=0.014 ; Set pressure advance
M117 PA 0.014
G1 X-29.2665 Y-7.28 E0.99515 F24000 ; Print pattern wall
G1 X-50.4797 Y13.9332 E0.99515 F24000 ; Print pattern wall
G1 E-1 F6000 ; Retract
G1 Z0.6 F60000 ; Z hop
G0 X-49.904 Y-28.4932 F60000 ; Move to start next pattern wall
G1 Z0.4 F60000 ; Z hop return
G1 E1 F6000 ; Un-retract
G1 X-28.6908 Y-7.28 E0.99515 F24000 ; Print pattern wall
G1 X-49.904 Y13.9332 E0.99515 F24000 ; Print pattern wall
G1 E-1 F6000 ; Retract
G1 Z0.6 F60000 ; Z hop
G0 X-49.3283 Y-28.4932 F60000 ; Move to start next pattern wall
G1 Z0.4 F60000 ; Z hop return
G1 E1 F6000 ; Un-retract
G1 X-28.1151 Y-7.28 E0.99515 F24000 ; Print pattern wall
G1 X-49.3283 Y13.9332 E0.99515 F24000 ; Print pattern wall
G1 E-1 F6000 ; Retract
G1 Z0.6 F60000 ; Z hop
G0 X-46.8783 Y-28.4932 F60000 ; Move to next pattern
G1 Z0.4 F60000 ; Z hop return
G1 E1 F6000 ; Un-retract
SET_PRESSURE_ADVANCE ADVANCE=0.015 ; Set pressure advance
M117 PA 0.015
G1 X-25.6651 Y-7.28 E0.99515 F24000 ; Print pattern wall
G1 X-46.8783 Y13.9332 E0.99515 F24000 ; Print pattern wall
G1 E-1 F6000 ; Retract
G1 Z0.6 F60000 ; Z hop
G0 X-46.3026 Y-28.4932 F60000 ; Move to start next pattern wall
G1 Z0.4 F60000 ; Z hop return
G1 E1 F6000 ; Un-retract
G1 X-25.0894 Y-7.28 E0.99515 F24000 ; Print pattern wall
G1 X-46.3026 Y13.9332 E0.99515 F24000 ; Print pattern wall
G1 E-1 F6000 ; Retract
G1 Z0.6 F60000 ; Z hop
G0 X-45.7269 Y-28.4932 F60000 ; Move to start next pattern wall
G1 Z0.4 F60000 ; Z hop return
G1 E1 F6000 ; Un-retract
G1 X-24.5137 Y-7.28 E0.99515 F24000 ; Print pattern wall
G1 X-45.7269 Y13.9332 E0.99515 F24000 ; Print pattern wall
G1 E-1 F6000 ; Retract
G1 Z0.6 F60000 ; Z hop
G0 X-43.2769 Y-28.4932 F60000 ; Move to next pattern
G1 Z0.4 F60000 ; Z hop return
G1 E1 F6000 ; Un-retract
SET_PRESSURE_ADVANCE ADVANCE=0.016 ; Set pressure advance
M117 PA 0.016
G1 X-22.0637 Y-7.28 E0.99515 F24000 ; Print pattern wall
G1 X-43.2769 Y13.9332 E0.99515 F24000 ; Print pattern wall
G1 E-1 F6000 ; Retract
G1 Z0.6 F60000 ; Z hop
G0 X-42.7012 Y-28.4932 F60000 ; Move to start next pattern wall
G1 Z0.4 F60000 ; Z hop return
G1 E1 F6000 ; Un-retract
G1 X-21.488 Y-7.28 E0.99515 F24000 ; Print pattern wall
G1 X-42.7012 Y13.9332 E0.99515 F24000 ; Print pattern wall
G1 E-1 F6000 ; Retract
G1 Z0.6 F60000 ; Z hop
G0 X-42.1255 Y-28.4932 F60000 ; Move to start next pattern wall
G1 Z0.4 F60000 ; Z hop return
G1 E1 F6000 ; Un-retract
G1 X-20.9123 Y-7.28 E0.99515 F24000 ; Print pattern wall
G1 X-42.1255 Y13.9332 E0.99515 F24000 ; Print pattern wall
G1 E-1 F6000 ; Retract
G1 Z0.6 F60000 ; Z hop
G0 X-39.6755 Y-28.4932 F60000 ; Move to next pattern
G1 Z0.4 F60000 ; Z hop return
G1 E1 F6000 ; Un-retract
SET_PRESSURE_ADVANCE ADVANCE=0.017 ; Set pressure advance
M117 PA 0.017
G1 X-18.4623 Y-7.28 E0.99515 F24000 ; Print pattern wall
G1 X-39.6755 Y13.9332 E0.99515 F24000 ; Print pattern wall
G1 E-1 F6000 ; Retract
G1 Z0.6 F60000 ; Z hop
G0 X-39.0998 Y-28.4932 F60000 ; Move to start next pattern wall
G1 Z0.4 F60000 ; Z hop return
G1 E1 F6000 ; Un-retract
G1 X-17.8866 Y-7.28 E0.99515 F24000 ; Print pattern wall
G1 X-39.0998 Y13.9332 E0.99515 F24000 ; Print pattern wall
G1 E-1 F6000 ; Retract
G1 Z0.6 F60000 ; Z hop
G0 X-38.5241 Y-28.4932 F60000 ; Move to start next pattern wall
G1 Z0.4 F60000 ; Z hop return
G1 E1 F6000 ; Un-retract
G1 X-17.3109 Y-7.28 E0.99515 F24000 ; Print pattern wall
G1 X-38.5241 Y13.9332 E0.99515 F24000 ; Print pattern wall
G1 E-1 F6000 ; Retract
G1 Z0.6 F60000 ; Z hop
G0 X-36.0741 Y-28.4932 F60000 ; Move to next pattern
G1 Z0.4 F60000 ; Z hop return
G1 E1 F6000 ; Un-retract
SET_PRESSURE_ADVANCE ADVANCE=0.018 ; Set pressure advance
M117 PA 0.018
G1 X-14.8609 Y-7.28 E0.99515 F24000 ; Print pattern wall
G1 X-36.0741 Y13.9332 E0.99515 F24000 ; Print pattern wall
G1 E-1 F6000 ; Retract
G1 Z0.6 F60000 ; Z hop
G0 X-35.4984 Y-28.4932 F60000 ; Move to start next pattern wall
G1 Z0.4 F60000 ; Z hop return
G1 E1 F6000 ; Un-retract
G1 X-14.2852 Y-7.28 E0.99515 F24000 ; Print pattern wall
G1 X-35.4984 Y13.9332 E0.99515 F24000 ; Print pattern wall
G1 E-1 F6000 ; Retract
G1 Z0.6 F60000 ; Z hop
G0 X-34.9227 Y-28.4932 F60000 ; Move to start next pattern wall
G1 Z0.4 F60000 ; Z hop return
G1 E1 F6000 ; Un-retract
G1 X-13.7095 Y-7.28 E0.99515 F24000 ; Print pattern wall
G1 X-34.9227 Y13.9332 E0.99515 F24000 ; Print pattern wall
G1 E-1 F6000 ; Retract
G1 Z0.6 F60000 ; Z hop
G0 X-32.4727 Y-28.4932 F60000 ; Move to next pattern
G1 Z0.4 F60000 ; Z hop return
G1 E1 F6000 ; Un-retract
SET_PRESSURE_ADVANCE ADVANCE=0.019 ; Set pressure advance
M117 PA 0.019
G1 X-11.2595 Y-7.28 E0.99515 F24000 ; Print pattern wall
G1 X-32.4727 Y13.9332 E0.99515 F24000 ; Print pattern wall
G1 E-1 F6000 ; Retract
G1 Z0.6 F60000 ; Z hop
G0 X-31.897 Y-28.4932 F60000 ; Move to start next pattern wall
G1 Z0.4 F60000 ; Z hop return
G1 E1 F6000 ; Un-retract
G1 X-10.6838 Y-7.28 E0.99515 F24000 ; Print pattern wall
G1 X-31.897 Y13.9332 E0.99515 F24000 ; Print pattern wall
G1 E-1 F6000 ; Retract
G1 Z0.6 F60000 ; Z hop
G0 X-31.3213 Y-28.4932 F60000 ; Move to start next pattern wall
G1 Z0.4 F60000 ; Z hop return
G1 E1 F6000 ; Un-retract
G1 X-10.1081 Y-7.28 E0.99515 F24000 ; Print pattern wall
G1 X-31.3213 Y13.9332 E0.99515 F24000 ; Print pattern wall
G1 E-1 F6000 ; Retract
G1 Z0.6 F60000 ; Z hop
G0 X-28.8713 Y-28.4932 F60000 ; Move to next pattern
G1 Z0.4 F60000 ; Z hop return
G1 E1 F6000 ; Un-retract
SET_PRESSURE_ADVANCE ADVANCE=0.02 ; Set pressure advance
M117 PA 0.02
G1 X-7.6581 Y-7.28 E0.99515 F24000 ; Print pattern wall
G1 X-28.8713 Y13.9332 E0.99515 F24000 ; Print pattern wall
G1 E-1 F6000 ; Retract
G1 Z0.6 F60000 ; Z hop
G0 X-28.2956 Y-28.4932 F60000 ; Move to start next pattern wall
G1 Z0.4 F60000 ; Z hop return
G1 E1 F6000 ; Un-retract
G1 X-7.0824 Y-7.28 E0.99515 F24000 ; Print pattern wall
G1 X-28.2956 Y13.9332 E0.99515 F24000 ; Print pattern wall
G1 E-1 F6000 ; Retract
G1 Z0.6 F60000 ; Z hop
G0 X-27.7199 Y-28.4932 F60000 ; Move to start next pattern wall
G1 Z0.4 F60000 ; Z hop return
G1 E1 F6000 ; Un-retract
G1 X-6.5067 Y-7.28 E0.99515 F24000 ; Print pattern wall
G1 X-27.7199 Y13.9332 E0.99515 F24000 ; Print pattern wall
G1 E-1 F6000 ; Retract
G1 Z0.6 F60000 ; Z hop
G0 X-25.2699 Y-28.4932 F60000 ; Move to next pattern
G1 Z0.4 F60000 ; Z hop return
G1 E1 F6000 ; Un-retract
SET_PRESSURE_ADVANCE ADVANCE=0.021 ; Set pressure advance
M117 PA 0.021
G1 X-4.0567 Y-7.28 E0.99515 F24000 ; Print pattern wall
G1 X-25.2699 Y13.9332 E0.99515 F24000 ; Print pattern wall
G1 E-1 F6000 ; Retract
G1 Z0.6 F60000 ; Z hop
G0 X-24.6942 Y-28.4932 F60000 ; Move to start next pattern wall
G1 Z0.4 F60000 ; Z hop return
G1 E1 F6000 ; Un-retract
G1 X-3.481 Y-7.28 E0.99515 F24000 ; Print pattern wall
G1 X-24.6942 Y13.9332 E0.99515 F24000 ; Print pattern wall
G1 E-1 F6000 ; Retract
G1 Z0.6 F60000 ; Z hop
G0 X-24.1185 Y-28.4932 F60000 ; Move to start next pattern wall
G1 Z0.4 F60000 ; Z hop return
G1 E1 F6000 ; Un-retract
G1 X-2.9053 Y-7.28 E0.99515 F24000 ; Print pattern wall
G1 X-24.1185 Y13.9332 E0.99515 F24000 ; Print pattern wall
G1 E-1 F6000 ; Retract
G1 Z0.6 F60000 ; Z hop
G0 X-21.6685 Y-28.4932 F60000 ; Move to next pattern
G1 Z0.4 F60000 ; Z hop return
G1 E1 F6000 ; Un-retract
SET_PRESSURE_ADVANCE ADVANCE=0.022 ; Set pressure advance
M117 PA 0.022
G1 X-0.4553 Y-7.28 E0.99515 F24000 ; Print pattern wall
G1 X-21.6685 Y13.9332 E0.99515 F24000 ; Print pattern wall
G1 E-1 F6000 ; Retract
G1 Z0.6 F60000 ; Z hop
G0 X-21.0928 Y-28.4932 F60000 ; Move to start next pattern wall
G1 Z0.4 F60000 ; Z hop return
G1 E1 F6000 ; Un-retract
G1 X0.1204 Y-7.28 E0.99515 F24000 ; Print pattern wall
G1 X-21.0928 Y13.9332 E0.99515 F24000 ; Print pattern wall
G1 E-1 F6000 ; Retract
G1 Z0.6 F60000 ; Z hop
G0 X-20.5171 Y-28.4932 F60000 ; Move to start next pattern wall
G1 Z0.4 F60000 ; Z hop return
G1 E1 F6000 ; Un-retract
G1 X0.6961 Y-7.28 E0.99515 F24000 ; Print pattern wall
G1 X-20.5171 Y13.9332 E0.99515 F24000 ; Print pattern wall
G1 E-1 F6000 ; Retract
G1 Z0.6 F60000 ; Z hop
G0 X-18.0671 Y-28.4932 F60000 ; Move to next pattern
G1 Z0.4 F60000 ; Z hop return
G1 E1 F6000 ; Un-retract
SET_PRESSURE_ADVANCE ADVANCE=0.023 ; Set pressure advance
M117 PA 0.023
G1 X3.1461 Y-7.28 E0.99515 F24000 ; Print pattern wall
G1 X-18.0671 Y13.9332 E0.99515 F24000 ; Print pattern wall
G1 E-1 F6000 ; Retract
G1 Z0.6 F60000 ; Z hop
G0 X-17.4914 Y-28.4932 F60000 ; Move to start next pattern wall
G1 Z0.4 F60000 ; Z hop return
G1 E1 F6000 ; Un-retract
G1 X3.7218 Y-7.28 E0.99515 F24000 ; Print pattern wall
G1 X-17.4914 Y13.9332 E0.99515 F24000 ; Print pattern wall
G1 E-1 F6000 ; Retract
G1 Z0.6 F60000 ; Z hop
G0 X-16.9157 Y-28.4932 F60000 ; Move to start next pattern wall
G1 Z0.4 F60000 ; Z hop return
G1 E1 F6000 ; Un-retract
G1 X4.2975 Y-7.28 E0.99515 F24000 ; Print pattern wall
G1 X-16.9157 Y13.9332 E0.99515 F24000 ; Print pattern wall
G1 E-1 F6000 ; Retract
G1 Z0.6 F60000 ; Z hop
G0 X-14.4657 Y-28.4932 F60000 ; Move to next pattern
G1 Z0.4 F60000 ; Z hop return
G1 E1 F6000 ; Un-retract
SET_PRESSURE_ADVANCE ADVANCE=0.024 ; Set pressure advance
M117 PA 0.024
G1 X6.7475 Y-7.28 E0.99515 F24000 ; Print pattern wall
G1 X-14.4657 Y13.9332 E0.99515 F24000 ; Print pattern wall
G1 E-1 F6000 ; Retract
G1 Z0.6 F60000 ; Z hop
G0 X-13.89 Y-28.4932 F60000 ; Move to start next pattern wall
G1 Z0.4 F60000 ; Z hop return
G1 E1 F6000 ; Un-retract
G1 X7.3232 Y-7.28 E0.99515 F24000 ; Print pattern wall
G1 X-13.89 Y13.9332 E0.99515 F24000 ; Print pattern wall
G1 E-1 F6000 ; Retract
G1 Z0.6 F60000 ; Z hop
G0 X-13.3143 Y-28.4932 F60000 ; Move to start next pattern wall
G1 Z0.4 F60000 ; Z hop return
G1 E1 F6000 ; Un-retract
G1 X7.8989 Y-7.28 E0.99515 F24000 ; Print pattern wall
G1 X-13.3143 Y13.9332 E0.99515 F24000 ; Print pattern wall
G1 E-1 F6000 ; Retract
G1 Z0.6 F60000 ; Z hop
G0 X-10.8643 Y-28.4932 F60000 ; Move to next pattern
G1 Z0.4 F60000 ; Z hop return
G1 E1 F6000 ; Un-retract
SET_PRESSURE_ADVANCE ADVANCE=0.025 ; Set pressure advance
M117 PA 0.025
G1 X10.3489 Y-7.28 E0.99515 F24000 ; Print pattern wall
G1 X-10.8643 Y13.9332 E0.99515 F24000 ; Print pattern wall
G1 E-1 F6000 ; Retract
G1 Z0.6 F60000 ; Z hop
G0 X-10.2886 Y-28.4932 F60000 ; Move to start next pattern wall
G1 Z0.4 F60000 ; Z hop return
G1 E1 F6000 ; Un-retract
G1 X10.9246 Y-7.28 E0.99515 F24000 ; Print pattern wall
G1 X-10.2886 Y13.9332 E0.99515 F24000 ; Print pattern wall
G1 E-1 F6000 ; Retract
G1 Z0.6 F60000 ; Z hop
G0 X-9.7129 Y-28.4932 F60000 ; Move to start next pattern wall
G1 Z0.4 F60000 ; Z hop return
G1 E1 F6000 ; Un-retract
G1 X11.5003 Y-7.28 E0.99515 F24000 ; Print pattern wall
G1 X-9.7129 Y13.9332 E0.99515 F24000 ; Print pattern wall
G1 E-1 F6000 ; Retract
G1 Z0.6 F60000 ; Z hop
G0 X-7.2629 Y-28.4932 F60000 ; Move to next pattern
G1 Z0.4 F60000 ; Z hop return
G1 E1 F6000 ; Un-retract
SET_PRESSURE_ADVANCE ADVANCE=0.026 ; Set pressure advance
M117 PA 0.026
G1 X13.9503 Y-7.28 E0.99515 F24000 ; Print pattern wall
G1 X-7.2629 Y13.9332 E0.99515 F24000 ; Print pattern wall
G1 E-1 F6000 ; Retract
G1 Z0.6 F60000 ; Z hop
G0 X-6.6872 Y-28.4932 F60000 ; Move to start next pattern wall
G1 Z0.4 F60000 ; Z hop return
G1 E1 F6000 ; Un-retract
G1 X14.526 Y-7.28 E0.99515 F24000 ; Print pattern wall
G1 X-6.6872 Y13.9332 E0.99515 F24000 ; Print pattern wall
G1 E-1 F6000 ; Retract
G1 Z0.6 F60000 ; Z hop
G0 X-6.1115 Y-28.4932 F60000 ; Move to start next pattern wall
G1 Z0.4 F60000 ; Z hop return
G1 E1 F6000 ; Un-retract
G1 X15.1017 Y-7.28 E0.99515 F24000 ; Print pattern wall
G1 X-6.1115 Y13.9332 E0.99515 F24000 ; Print pattern wall
G1 E-1 F6000 ; Retract
G1 Z0.6 F60000 ; Z hop
G0 X-3.6615 Y-28.4932 F60000 ; Move to next pattern
G1 Z0.4 F60000 ; Z hop return
G1 E1 F6000 ; Un-retract
SET_PRESSURE_ADVANCE ADVANCE=0.027 ; Set pressure advance
M117 PA 0.027
G1 X17.5517 Y-7.28 E0.99515 F24000 ; Print pattern wall
G1 X-3.6615 Y13.9332 E0.99515 F24000 ; Print pattern wall
G1 E-1 F6000 ; Retract
G1 Z0.6 F60000 ; Z hop
G0 X-3.0858 Y-28.4932 F60000 ; Move to start next pattern wall
G1 Z0.4 F60000 ; Z hop return
G1 E1 F6000 ; Un-retract
G1 X18.1274 Y-7.28 E0.99515 F24000 ; Print pattern wall
G1 X-3.0858 Y13.9332 E0.99515 F24000 ; Print pattern wall
G1 E-1 F6000 ; Retract
G1 Z0.6 F60000 ; Z hop
G0 X-2.5101 Y-28.4932 F60000 ; Move to start next pattern wall
G1 Z0.4 F60000 ; Z hop return
G1 E1 F6000 ; Un-retract
G1 X18.7031 Y-7.28 E0.99515 F24000 ; Print pattern wall
G1 X-2.5101 Y13.9332 E0.99515 F24000 ; Print pattern wall
G1 E-1 F6000 ; Retract
G1 Z0.6 F60000 ; Z hop
G0 X-0.0601 Y-28.4932 F60000 ; Move to next pattern
G1 Z0.4 F60000 ; Z hop return
G1 E1 F6000 ; Un-retract
SET_PRESSURE_ADVANCE ADVANCE=0.028 ; Set pressure advance
M117 PA 0.028
G1 X21.1531 Y-7.28 E0.99515 F24000 ; Print pattern wall
G1 X-0.0601 Y13.9332 E0.99515 F24000 ; Print pattern wall
G1 E-1 F6000 ; Retract
G1 Z0.6 F60000 ; Z hop
G0 X0.5156 Y-28.4932 F60000 ; Move to start next pattern wall
G1 Z0.4 F60000 ; Z hop return
G1 E1 F6000 ; Un-retract
G1 X21.7288 Y-7.28 E0.99515 F24000 ; Print pattern wall
G1 X0.5156 Y13.9332 E0.99515 F24000 ; Print pattern wall
G1 E-1 F6000 ; Retract
G1 Z0.6 F60000 ; Z hop
G0 X1.0912 Y-28.4932 F60000 ; Move to start next pattern wall
G1 Z0.4 F60000 ; Z hop return
G1 E1 F6000 ; Un-retract
G1 X22.3045 Y-7.28 E0.99515 F24000 ; Print pattern wall
G1 X1.0912 Y13.9332 E0.99515 F24000 ; Print pattern wall
G1 E-1 F6000 ; Retract
G1 Z0.6 F60000 ; Z hop
G0 X3.5412 Y-28.4932 F60000 ; Move to next pattern
G1 Z0.4 F60000 ; Z hop return
G1 E1 F6000 ; Un-retract
SET_PRESSURE_ADVANCE ADVANCE=0.029 ; Set pressure advance
M117 PA 0.029
G1 X24.7545 Y-7.28 E0.99515 F24000 ; Print pattern wall
G1 X3.5412 Y13.9332 E0.99515 F24000 ; Print pattern wall
G1 E-1 F6000 ; Retract
G1 Z0.6 F60000 ; Z hop
G0 X4.1169 Y-28.4932 F60000 ; Move to start next pattern wall
G1 Z0.4 F60000 ; Z hop return
G1 E1 F6000 ; Un-retract
G1 X25.3301 Y-7.28 E0.99515 F24000 ; Print pattern wall
G1 X4.1169 Y13.9332 E0.99515 F24000 ; Print pattern wall
G1 E-1 F6000 ; Retract
G1 Z0.6 F60000 ; Z hop
G0 X4.6926 Y-28.4932 F60000 ; Move to start next pattern wall
G1 Z0.4 F60000 ; Z hop return
G1 E1 F6000 ; Un-retract
G1 X25.9058 Y-7.28 E0.99515 F24000 ; Print pattern wall
G1 X4.6926 Y13.9332 E0.99515 F24000 ; Print pattern wall
G1 E-1 F6000 ; Retract
G1 Z0.6 F60000 ; Z hop
G0 X7.1426 Y-28.4932 F60000 ; Move to next pattern
G1 Z0.4 F60000 ; Z hop return
G1 E1 F6000 ; Un-retract
SET_PRESSURE_ADVANCE ADVANCE=0.03 ; Set pressure advance
M117 PA 0.03
G1 X28.3558 Y-7.28 E0.99515 F24000 ; Print pattern wall
G1 X7.1426 Y13.9332 E0.99515 F24000 ; Print pattern wall
G1 E-1 F6000 ; Retract
G1 Z0.6 F60000 ; Z hop
G0 X7.7183 Y-28.4932 F60000 ; Move to start next pattern wall
G1 Z0.4 F60000 ; Z hop return
G1 E1 F6000 ; Un-retract
G1 X28.9315 Y-7.28 E0.99515 F24000 ; Print pattern wall
G1 X7.7183 Y13.9332 E0.99515 F24000 ; Print pattern wall
G1 E-1 F6000 ; Retract
G1 Z0.6 F60000 ; Z hop
G0 X8.294 Y-28.4932 F60000 ; Move to start next pattern wall
G1 Z0.4 F60000 ; Z hop return
G1 E1 F6000 ; Un-retract
G1 X29.5072 Y-7.28 E0.99515 F24000 ; Print pattern wall
G1 X8.294 Y13.9332 E0.99515 F24000 ; Print pattern wall
G1 E-1 F6000 ; Retract
G1 Z0.6 F60000 ; Z hop
G0 X10.744 Y-28.4932 F60000 ; Move to next pattern
G1 Z0.4 F60000 ; Z hop return
G1 E1 F6000 ; Un-retract
SET_PRESSURE_ADVANCE ADVANCE=0.031 ; Set pressure advance
M117 PA 0.031
G1 X31.9572 Y-7.28 E0.99515 F24000 ; Print pattern wall
G1 X10.744 Y13.9332 E0.99515 F24000 ; Print pattern wall
G1 E-1 F6000 ; Retract
G1 Z0.6 F60000 ; Z hop
G0 X11.3197 Y-28.4932 F60000 ; Move to start next pattern wall
G1 Z0.4 F60000 ; Z hop return
G1 E1 F6000 ; Un-retract
G1 X32.5329 Y-7.28 E0.99515 F24000 ; Print pattern wall
G1 X11.3197 Y13.9332 E0.99515 F24000 ; Print pattern wall
G1 E-1 F6000 ; Retract
G1 Z0.6 F60000 ; Z hop
G0 X11.8954 Y-28.4932 F60000 ; Move to start next pattern wall
G1 Z0.4 F60000 ; Z hop return
G1 E1 F6000 ; Un-retract
G1 X33.1086 Y-7.28 E0.99515 F24000 ; Print pattern wall
G1 X11.8954 Y13.9332 E0.99515 F24000 ; Print pattern wall
G1 E-1 F6000 ; Retract
G1 Z0.6 F60000 ; Z hop
G0 X14.3454 Y-28.4932 F60000 ; Move to next pattern
G1 Z0.4 F60000 ; Z hop return
G1 E1 F6000 ; Un-retract
SET_PRESSURE_ADVANCE ADVANCE=0.032 ; Set pressure advance
M117 PA 0.032
G1 X35.5586 Y-7.28 E0.99515 F24000 ; Print pattern wall
G1 X14.3454 Y13.9332 E0.99515 F24000 ; Print pattern wall
G1 E-1 F6000 ; Retract
G1 Z0.6 F60000 ; Z hop
G0 X14.9211 Y-28.4932 F60000 ; Move to start next pattern wall
G1 Z0.4 F60000 ; Z hop return
G1 E1 F6000 ; Un-retract
G1 X36.1343 Y-7.28 E0.99515 F24000 ; Print pattern wall
G1 X14.9211 Y13.9332 E0.99515 F24000 ; Print pattern wall
G1 E-1 F6000 ; Retract
G1 Z0.6 F60000 ; Z hop
G0 X15.4968 Y-28.4932 F60000 ; Move to start next pattern wall
G1 Z0.4 F60000 ; Z hop return
G1 E1 F6000 ; Un-retract
G1 X36.71 Y-7.28 E0.99515 F24000 ; Print pattern wall
G1 X15.4968 Y13.9332 E0.99515 F24000 ; Print pattern wall
G1 E-1 F6000 ; Retract
G1 Z0.6 F60000 ; Z hop
G0 X17.9468 Y-28.4932 F60000 ; Move to next pattern
G1 Z0.4 F60000 ; Z hop return
G1 E1 F6000 ; Un-retract
SET_PRESSURE_ADVANCE ADVANCE=0.033 ; Set pressure advance
M117 PA 0.033
G1 X39.16 Y-7.28 E0.99515 F24000 ; Print pattern wall
G1 X17.9468 Y13.9332 E0.99515 F24000 ; Print pattern wall
G1 E-1 F6000 ; Retract
G1 Z0.6 F60000 ; Z hop
G0 X18.5225 Y-28.4932 F60000 ; Move to start next pattern wall
G1 Z0.4 F60000 ; Z hop return
G1 E1 F6000 ; Un-retract
G1 X39.7357 Y-7.28 E0.99515 F24000 ; Print pattern wall
G1 X18.5225 Y13.9332 E0.99515 F24000 ; Print pattern wall
G1 E-1 F6000 ; Retract
G1 Z0.6 F60000 ; Z hop
G0 X19.0982 Y-28.4932 F60000 ; Move to start next pattern wall
G1 Z0.4 F60000 ; Z hop return
G1 E1 F6000 ; Un-retract
G1 X40.3114 Y-7.28 E0.99515 F24000 ; Print pattern wall
G1 X19.0982 Y13.9332 E0.99515 F24000 ; Print pattern wall
G1 E-1 F6000 ; Retract
G1 Z0.6 F60000 ; Z hop
G0 X21.5482 Y-28.4932 F60000 ; Move to next pattern
G1 Z0.4 F60000 ; Z hop return
G1 E1 F6000 ; Un-retract
SET_PRESSURE_ADVANCE ADVANCE=0.034 ; Set pressure advance
M117 PA 0.034
G1 X42.7614 Y-7.28 E0.99515 F24000 ; Print pattern wall
G1 X21.5482 Y13.9332 E0.99515 F24000 ; Print pattern wall
G1 E-1 F6000 ; Retract
G1 Z0.6 F60000 ; Z hop
G0 X22.1239 Y-28.4932 F60000 ; Move to start next pattern wall
G1 Z0.4 F60000 ; Z hop return
G1 E1 F6000 ; Un-retract
G1 X43.3371 Y-7.28 E0.99515 F24000 ; Print pattern wall
G1 X22.1239 Y13.9332 E0.99515 F24000 ; Print pattern wall
G1 E-1 F6000 ; Retract
G1 Z0.6 F60000 ; Z hop
G0 X22.6996 Y-28.4932 F60000 ; Move to start next pattern wall
G1 Z0.4 F60000 ; Z hop return
G1 E1 F6000 ; Un-retract
G1 X43.9128 Y-7.28 E0.99515 F24000 ; Print pattern wall
G1 X22.6996 Y13.9332 E0.99515 F24000 ; Print pattern wall
G1 E-1 F6000 ; Retract
G1 Z0.6 F60000 ; Z hop
G0 X25.1496 Y-28.4932 F60000 ; Move to next pattern
G1 Z0.4 F60000 ; Z hop return
G1 E1 F6000 ; Un-retract
SET_PRESSURE_ADVANCE ADVANCE=0.035 ; Set pressure advance
M117 PA 0.035
G1 X46.3628 Y-7.28 E0.99515 F24000 ; Print pattern wall
G1 X25.1496 Y13.9332 E0.99515 F24000 ; Print pattern wall
G1 E-1 F6000 ; Retract
G1 Z0.6 F60000 ; Z hop
G0 X25.7253 Y-28.4932 F60000 ; Move to start next pattern wall
G1 Z0.4 F60000 ; Z hop return
G1 E1 F6000 ; Un-retract
G1 X46.9385 Y-7.28 E0.99515 F24000 ; Print pattern wall
G1 X25.7253 Y13.9332 E0.99515 F24000 ; Print pattern wall
G1 E-1 F6000 ; Retract
G1 Z0.6 F60000 ; Z hop
G0 X26.301 Y-28.4932 F60000 ; Move to start next pattern wall
G1 Z0.4 F60000 ; Z hop return
G1 E1 F6000 ; Un-retract
G1 X47.5142 Y-7.28 E0.99515 F24000 ; Print pattern wall
G1 X26.301 Y13.9332 E0.99515 F24000 ; Print pattern wall
G1 E-1 F6000 ; Retract
G1 Z0.6 F60000 ; Z hop
G0 X28.751 Y-28.4932 F60000 ; Move to next pattern
G1 Z0.4 F60000 ; Z hop return
G1 E1 F6000 ; Un-retract
SET_PRESSURE_ADVANCE ADVANCE=0.036 ; Set pressure advance
M117 PA 0.036
G1 X49.9642 Y-7.28 E0.99515 F24000 ; Print pattern wall
G1 X28.751 Y13.9332 E0.99515 F24000 ; Print pattern wall
G1 E-1 F6000 ; Retract
G1 Z0.6 F60000 ; Z hop
G0 X29.3267 Y-28.4932 F60000 ; Move to start next pattern wall
G1 Z0.4 F60000 ; Z hop return
G1 E1 F6000 ; Un-retract
G1 X50.5399 Y-7.28 E0.99515 F24000 ; Print pattern wall
G1 X29.3267 Y13.9332 E0.99515 F24000 ; Print pattern wall
G1 E-1 F6000 ; Retract
G1 Z0.6 F60000 ; Z hop
G0 X29.9024 Y-28.4932 F60000 ; Move to start next pattern wall
G1 Z0.4 F60000 ; Z hop return
G1 E1 F6000 ; Un-retract
G1 X51.1156 Y-7.28 E0.99515 F24000 ; Print pattern wall
G1 X29.9024 Y13.9332 E0.99515 F24000 ; Print pattern wall
G1 E-1 F6000 ; Retract
G1 Z0.6 F60000 ; Z hop
G0 X32.3524 Y-28.4932 F60000 ; Move to next pattern
G1 Z0.4 F60000 ; Z hop return
G1 E1 F6000 ; Un-retract
SET_PRESSURE_ADVANCE ADVANCE=0.037 ; Set pressure advance
M117 PA 0.037
G1 X53.5656 Y-7.28 E0.99515 F24000 ; Print pattern wall
G1 X32.3524 Y13.9332 E0.99515 F24000 ; Print pattern wall
G1 E-1 F6000 ; Retract
G1 Z0.6 F60000 ; Z hop
G0 X32.9281 Y-28.4932 F60000 ; Move to start next pattern wall
G1 Z0.4 F60000 ; Z hop return
G1 E1 F6000 ; Un-retract
G1 X54.1413 Y-7.28 E0.99515 F24000 ; Print pattern wall
G1 X32.9281 Y13.9332 E0.99515 F24000 ; Print pattern wall
G1 E-1 F6000 ; Retract
G1 Z0.6 F60000 ; Z hop
G0 X33.5038 Y-28.4932 F60000 ; Move to start next pattern wall
G1 Z0.4 F60000 ; Z hop return
G1 E1 F6000 ; Un-retract
G1 X54.717 Y-7.28 E0.99515 F24000 ; Print pattern wall
G1 X33.5038 Y13.9332 E0.99515 F24000 ; Print pattern wall
G1 E-1 F6000 ; Retract
G1 Z0.6 F60000 ; Z hop
G0 X35.9538 Y-28.4932 F60000 ; Move to next pattern
G1 Z0.4 F60000 ; Z hop return
G1 E1 F6000 ; Un-retract
SET_PRESSURE_ADVANCE ADVANCE=0.038 ; Set pressure advance
M117 PA 0.038
G1 X57.167 Y-7.28 E0.99515 F24000 ; Print pattern wall
G1 X35.9538 Y13.9332 E0.99515 F24000 ; Print pattern wall
G1 E-1 F6000 ; Retract
G1 Z0.6 F60000 ; Z hop
G0 X36.5295 Y-28.4932 F60000 ; Move to start next pattern wall
G1 Z0.4 F60000 ; Z hop return
G1 E1 F6000 ; Un-retract
G1 X57.7427 Y-7.28 E0.99515 F24000 ; Print pattern wall
G1 X36.5295 Y13.9332 E0.99515 F24000 ; Print pattern wall
G1 E-1 F6000 ; Retract
G1 Z0.6 F60000 ; Z hop
G0 X37.1052 Y-28.4932 F60000 ; Move to start next pattern wall
G1 Z0.4 F60000 ; Z hop return
G1 E1 F6000 ; Un-retract
G1 X58.3184 Y-7.28 E0.99515 F24000 ; Print pattern wall
G1 X37.1052 Y13.9332 E0.99515 F24000 ; Print pattern wall
G1 E-1 F6000 ; Retract
G1 Z0.6 F60000 ; Z hop
G0 X39.5552 Y-28.4932 F60000 ; Move to next pattern
G1 Z0.4 F60000 ; Z hop return
G1 E1 F6000 ; Un-retract
SET_PRESSURE_ADVANCE ADVANCE=0.039 ; Set pressure advance
M117 PA 0.039
G1 X60.7684 Y-7.28 E0.99515 F24000 ; Print pattern wall
G1 X39.5552 Y13.9332 E0.99515 F24000 ; Print pattern wall
G1 E-1 F6000 ; Retract
G1 Z0.6 F60000 ; Z hop
G0 X40.1309 Y-28.4932 F60000 ; Move to start next pattern wall
G1 Z0.4 F60000 ; Z hop return
G1 E1 F6000 ; Un-retract
G1 X61.3441 Y-7.28 E0.99515 F24000 ; Print pattern wall
G1 X40.1309 Y13.9332 E0.99515 F24000 ; Print pattern wall
G1 E-1 F6000 ; Retract
G1 Z0.6 F60000 ; Z hop
G0 X40.7066 Y-28.4932 F60000 ; Move to start next pattern wall
G1 Z0.4 F60000 ; Z hop return
G1 E1 F6000 ; Un-retract
G1 X61.9198 Y-7.28 E0.99515 F24000 ; Print pattern wall
G1 X40.7066 Y13.9332 E0.99515 F24000 ; Print pattern wall
G1 E-1 F6000 ; Retract
G1 Z0.6 F60000 ; Z hop
G0 X43.1566 Y-28.4932 F60000 ; Move to next pattern
G1 Z0.4 F60000 ; Z hop return
G1 E1 F6000 ; Un-retract
